!!!!SEGMENT: pl-cz--ii-184--001-006_neumann-wawrzyniec--vesperae-de-apostolis-in-c-magnificat.krn
!!!cenid: 17xx:1004
!!!COM: Neumann, Wawrzyniec
!!!COM-rismID: pe30107352
!!!CDT: ~1700-~1799
!!!CNT:
!!!OPR: Vesperae de Apostolis in C
!!!OTL: Magnificat
!!!OMV: 006
!!!PDT:
!!!AGN: Sacred; Vespers
!!!SMS-siglum: PL-CZ
!!!SMS-shelfmark: II-184
!!!SMS-shelfwork: 001-006 M
!!!SMS-variant:
!!!SMS-altvar:
!!!NIFC-rismSourceID: 300000912
!!!NIFC-rismChildID: 300000912
!!!NIFC-islandoraID: pl-cz:32706
!!!URL-pdf-islandora: https://repozytorium.nifc.pl/islandora/object/pl-cz%3A32706/datastream/PDF/view
!!!URL-scan: https://polish.musicsources.pl/pl/lokalizacje/galeria/rekopisy/6774/1 @EN{Scan on Polish Music Sources Website} @PL{Skany w portalu Dziedzictwo Muzyki Polskiej w otwartym dostępie}
!!!IIIF:
!!!ONB-nifc: UWAGA: części Vesperae: Dixit Dominus, Laudate pueri, Credidi, In convertendo, Domine probasti me, Magnificat
!!!AIN: 1 alto 1 bass 2 clrno 1 organ 1 soprn 1 tenor 2 violn
!!!key: C
**kern	**fba	**dynam	**kern	**dynam	**kern	**dynam	**kern	**text	**kern	**text	**kern	**text	**kern	**text	**kern	**kern
*part9	*part9	*part9	*part8	*part8	*part7	*part7	*part6	*part6	*part5	*part5	*part4	*part4	*part3	*part3	*part2	*part1
*staff9	*staff9	*	*staff8	*	*staff7	*	*staff6	*staff6	*staff5	*staff5	*staff4	*staff4	*staff3	*staff3	*staff2	*staff1
*I"Organo	*	*	*I"Violino Secondo.	*	*I".Violino. Primo.	*	*I"Basſo.	*	*I"Tenore.	*	*I"Alto	*	*I"Canto	*	*I"Clarino Secondo ad libitum.	*I"Clarino Primo ad libitum
*I'Org	*	*	*I'Vn II	*	*I'Vn I	*	*I'B.	*	*I'T.	*	*I'A.	*	*I'C.	*	*I'Clar II	*I'Clar I
*Iorgan	*	*	*Ivioln	*	*Ivioln	*	*Ibass	*	*Itenor	*	*Ialto	*	*Isoprn	*	*Iclrno	*Iclrno
*ICklav	*	*	*ICstr	*	*ICstr	*	*ICvox	*	*ICvox	*	*ICvox	*	*ICvox	*	*ICbras	*ICbras
*IGcont	*	*	*	*	*	*	*	*	*	*	*	*	*	*	*	*
*clefF4	*	*	*clefG2	*	*clefG2	*	*clefF4	*	*clefC4	*	*clefC3	*	*clefC1	*	*clefG2	*clefG2
*k[]	*	*	*k[]	*	*k[]	*	*k[]	*	*k[]	*	*k[]	*	*k[]	*	*k[]	*k[]
*C:	*	*	*C:	*	*C:	*	*C:	*	*C:	*	*C:	*	*C:	*	*C:	*C:
*M4/4	*	*	*M4/4	*	*M4/4	*	*M4/4	*	*M4/4	*	*M4/4	*	*M4/4	*	*M4/4	*M4/4
*met(c)	*	*	*met(c)	*	*met(c)	*	*met(c)	*	*met(c)	*	*met(c)	*	*met(c)	*	*met(c)	*met(c)
=1	=1	=1	=1	=1	=1	=1	=1	=1	=1	=1	=1	=1	=1	=1	=1	=1
*	*	*	*	*	*	*	*	*	*all\right	*	*all\right	*	*all\right	*	*	*
*2\right	*	*	*2\right	*	*2\right	*	*2\right	*	*2\right	*	*2\right	*	*2\right	*	*2\right	*2\right
!	!	!	!	!LO:DY:a:t=p&colon;	!	!LO:DY:a:t=pia.	!	!	!	!	!	!	!	!	!	!
!LO:TX:a:t=S&colon;	!	!	!	!	!LO:TX:b:t=Magnificat	!	!	!	!	!	!	!	!	!	!	!
!LO:TX:a:t=adagio	!	!	!LO:TX:a:t=Adagio	!	!	!	!	!	!	!	!LO:TX:a:t=adagio	!	!	!	!	!
!LO:TX:b:t=Magnificat	!	!	!LO:TX:b:t=Magnificat	!	!LO:TX:a:t=and(an)&colon;	!	!LO:TX:b:t=Magnificat	!	!LO:TX:b:t=Magnificat	!	!LO:TX:b:t=Magnifi\ncat&colon;	!	!LO:TX:a:t=Solo Adagio.	!	!LO:TX:b:t=Magnificat	!LO:TX:b:t=Magnificat.
2C/	.	.	2ee\	p	1gg	p	1r	.	1r	.	1r	.	4r	.	1r	1r
!	!	!	!	!	!	!	!	!	!	!	!	!	!LO:TX:t=P:problem=all\right&colon; global	!	!	!
.	.	.	.	.	.	.	.	.	.	.	.	.	4cc\	Ma-	.	.
.	.	.	.	.	.	.	.	.	.	.	.	.	8qqb/	.	.	.
2GG/	.	.	2dd\	.	.	.	.	.	.	.	.	.	8.b\	-gni-	.	.
.	.	.	.	.	.	.	.	.	.	.	.	.	16a\	-fi-	.	.
.	.	.	.	.	.	.	.	.	.	.	.	.	4g\	-cat	.	.
=2	=2	=2	=2	=2	=2	=2	=2	=2	=2	=2	=2	=2	=2	=2	=2	=2
2GG/	7	.	2b\	.	4.ff\	.	1r	.	1r	.	1r	.	8ff\	a-	1r	1r
.	.	.	.	.	.	.	.	.	.	.	.	.	16dd\	-ni-	.	.
.	.	.	.	.	.	.	.	.	.	.	.	.	16b\	-ma	.	.
.	.	.	.	.	.	.	.	.	.	.	.	.	8g\	me-	.	.
.	.	.	.	.	16ee\LL	.	.	.	.	.	.	.	8f\	-a.	.	.
.	.	.	.	.	16dd\JJ	.	.	.	.	.	.	.	.	.	.	.
2C/	9:8 4:3	.	8.f/L	.	4dd\	.	.	.	.	.	.	.	8.f/	Do-	.	.
.	.	.	16e/Jk	.	.	.	.	.	.	.	.	.	16e/	-mi-	.	.
.	.	.	4e/	.	4cc\	.	.	.	.	.	.	.	4e/	-nu(m)	.	.
=3||	=3||	=3||	=3||	=3||	=3|	=3||	=3|	=3||	=3|	=3||	=3|	=3||	=3||	=3||	=3||	=3|
!	!	!	!	!LO:DY:b:t=f&colon;	!LO:TX:t=P:problem=brak podwójnej kreski	!	!LO:TX:a:t=Allo	!	!	!	!LO:TX:t=P:problem=brak podwójnej kreski	!	!	!	!LO:TX:a:t=allo.	!
!LO:TX:a:t=allo&colon;	!	!	!LO:TX:a:t=allo	!	!LO:TX:t=Allo&colon;	!	!LO:TX:t=P:problem=brak podwójnej kreski	!	!LO:TX:t=P:problem=brak podwójnej kreski	!	!LO:TX:a:t=allo	!	!LO:TX:a:t=Allö	!	!LO:TX:t=P:problem=brak podwójnej kreski	!LO:TX:t=P:problem=brak podwójnej kreski
16C\LL	.	.	8g/	f	2ee\	.	8r	.	8r	.	8r	.	8r	.	4cc\	4ee\
16D\	.	.	.	.	.	.	.	.	.	.	.	.	.	.	.	.
!	!	!	!	!	!	!	!LO:TX:a:t=T&colon;	!	!	!	!	!	!LO:TX:a:t=Tutt&colon;	!	!	!
16E\	.	.	4g/	.	.	.	16E\LL	Et	8c\	Et	8g\	Et	8ee\	Et	.	.
16F\JJ	.	.	.	.	.	.	16F\JJ	.	.	.	.	.	.	.	.	.
16G\LL	.	.	.	.	.	.	16G\LL	ex-	8c\	ex-	8g\	ex-	8ee\	ex-	4r	4r
16A\	.	.	.	.	.	.	16A\JJ	.	.	.	.	.	.	.	.	.
16B\	.	.	8g/	.	.	.	16B\LL	-ul-	8c\	-ul-	8g\	-ul-	8ee\	-ul-	.	.
16c\JJ	.	.	.	.	.	.	16c\JJ	.	.	.	.	.	.	.	.	.
!	!	!	!	!	!	!LO:DY:a:t=for&colon;	!	!	!	!	!	!	!	!	!	!
2B-X\	4 2	.	8g/	.	16ee\LL	f	4B-X\	-ta-	4c\	-ta-	4g\	-ta-	16ee\LL	-ta-	8r	8r
.	.	.	.	.	16g\	.	.	.	.	.	.	.	16g\	.	.	.
.	.	.	4g/	.	16a\	.	.	.	.	.	.	.	16a\	.	8cc\L	8ee\L
.	.	.	.	.	16b\JJ	.	.	.	.	.	.	.	16b\JJ	.	.	.
.	.	.	.	.	16cc\LL	.	4B-\	-vit	4c\	-vit	4g\	-vit	16cc\LL	.	8cc\	8ee\
.	.	.	.	.	16dd\	.	.	.	.	.	.	.	16dd\	.	.	.
.	.	.	8g/	.	16ee\	.	.	.	.	.	.	.	16ee\	.	8cc\J	8ee\J
.	.	.	.	.	16ff\JJ	.	.	.	.	.	.	.	16ff\JJ	.	.	.
!	!	!	!	!	!	!	!	!	!	!	!	!	!LO:LB:g=original	!	!	!
=4	=4	=4	=4	=4	=4	=4	=4	=4	=4	=4	=4	=4	=4	=4	=4	=4
16B-X\LL	.	.	8ee\	.	2gg\	.	16B-X\LL	Ex-	4c\	ex-	4e\	ex-	8gg\	.	8r	8r
16A\	.	.	.	.	.	.	16A\	.	.	.	.	.	.	.	.	.
16G\	.	.	4ee\	.	.	.	16G\	.	.	.	.	.	8gg\	-vit	8cc\L	8ee\L
16F\JJ	.	.	.	.	.	.	16F\JJ	.	.	.	.	.	.	.	.	.
16E\LL	.	.	.	.	.	.	16E\LL	.	4c\	-ul-	4e\	-ul-	8gg\	ex-	8cc\	8ee\
16D\	.	.	.	.	.	.	16D\JJ	.	.	.	.	.	.	.	.	.
16C\	.	.	8ee\	.	.	.	16C/LL	-ul-	.	.	.	.	8gg\	-al-	8cc\J	8ee\J
16BB-X\JJ	.	.	.	.	.	.	16BB-X/JJ	.	.	.	.	.	.	.	.	.
!LO:LB:g=original	!	!	!	!	!	!	!	!	!	!	!	!	!	!	!	!
2AA/	6	.	8cc\	.	16ff\LL	.	4AA/	-ta-	4c\	-ta-	4f\	-ta-	16ff\LL	-ta-	8r	8r
.	.	.	.	.	16ee\	.	.	.	.	.	.	.	16ee\	.	.	.
.	.	.	4cc\	.	16dd\	.	.	.	.	.	.	.	16dd\	.	8c/L	8cc\L
.	.	.	.	.	16cc\JJ	.	.	.	.	.	.	.	16cc\JJ	.	.	.
.	.	.	.	.	16b-X\LL	.	4AA/	-vit	4c\	-vit	4f\	-vit	16b-X\LL	.	8c/	8cc\
.	.	.	.	.	16a\	.	.	.	.	.	.	.	16a\	.	.	.
.	.	.	8cc\	.	16g\	.	.	.	.	.	.	.	16g\	.	8c/J	8cc\J
.	.	.	.	.	16f\JJ	.	.	.	.	.	.	.	16f\JJ	.	.	.
=5	=5	=5	=5	=5	=5	=5	=5	=5	=5	=5	=5	=5	=5	=5	=5	=5
!	!	!	!	!	!	!	!	!	!	!	!	!	!	!	!	!LO:TX:a:t=1
16D\LL	#	.	8a/	.	8f#X/	.	16D\LL	ex-	8.d\	Spi-	8.f#X\	Spi-	8f#X/	.	1r	1r
16E\	.	.	.	.	.	.	16E\	.	.	.	.	.	.	.	.	.
16F#X\	.	.	4a/	.	4ff#y\	.	16F#X\	.	.	.	.	.	8dd\	-vit	.	.
16G\JJ	.	.	.	.	.	.	16G\JJ	.	16d\	-ri-	16f#\	-ri-	.	.	.	.
16A\LL	.	.	.	.	.	.	16A\LL	.	4d\	-tus	4d\	-tus	8ff#X\	ex-	.	.
16B\	#	.	.	.	.	.	16B\	.	.	.	.	.	.	.	.	.
16c\	.	.	8a/	.	8ff#\	.	16c#X\	-ul-	.	.	.	.	8ff#\	-al-	.	.
16d\JJ	.	.	.	.	.	.	16d\JJ	.	.	.	.	.	.	.	.	.
!	!	!	!	!	!LO:LB:g=original	!	!	!	!	!	!	!	!	!	!	!
2cn\	.	.	8a/	.	16ff#\LL	.	4cn\	-ta-	4d\	me-	4a\	me-	16ff#\LL	-ta-	.	.
.	.	.	.	.	16a\	.	.	.	.	.	.	.	16a#X\	.	.	.
.	.	.	4a/	.	16bn\	.	.	.	.	.	.	.	16b\	.	.	.
.	.	.	.	.	16cc\JJ	.	.	.	.	.	.	.	16cc\JJ	.	.	.
!	!	!	!	!	!	!	!LO:LB:g=original	!	!	!	!	!	!	!	!	!
.	.	.	.	.	16dd\LL	.	4c\	-vit	4d\	-us	4a\	-us	16dd\LL	.	.	.
.	.	.	.	.	16ee\	.	.	.	.	.	.	.	16ee\	.	.	.
.	.	.	8a/	.	16ff#X\	.	.	.	.	.	.	.	16ff#X\	.	.	.
.	.	.	.	.	16gg\JJ	.	.	.	.	.	.	.	16gg\JJ	.	.	.
!	!	!	!LO:LB:g=original	!	!	!	!	!	!	!	!	!	!	!	!	!
=6	=6	=6	=6	=6	=6	=6	=6	=6	=6	=6	=6	=6	=6	=6	=6	=6
16c\LL	.	.	8aa\	.	2ff#X\	.	16cn\LL	ex-	4d\	ex-	4a\	ex-	2ff#X\	.	2r	2r
16B\	.	.	.	.	.	.	16B\	.	.	.	.	.	.	.	.	.
16A\	.	.	4aa\	.	.	.	16A\	.	.	.	.	.	.	.	.	.
16G\JJ	.	.	.	.	.	.	16G\JJ	.	.	.	.	.	.	.	.	.
16F#X\LL	.	.	.	.	.	.	16F#X\LL	.	4d\	-ul-	4a\	-ul-	.	.	.	.
16E\	.	.	.	.	.	.	16E\	.	.	.	.	.	.	.	.	.
16D\	.	.	8aa\	.	.	.	16D\	-ul-	.	.	.	.	.	.	.	.
16C\JJ	.	.	.	.	.	.	16C\JJ	.	.	.	.	.	.	.	.	.
!	!	!	!	!	!	!	!	!	!	!	!LO:LB:g=original	!	!	!	!	!
2BB/	6	.	8dd\	.	16gg\LL	.	4BB/	-ta-	4d\	-ta-	4g\	-ta-	16gg\LL	.	8r	8r
.	.	.	.	.	16ff#\	.	.	.	.	.	.	.	16ff#X\	.	.	.
.	.	.	4dd\	.	16ee\	.	.	.	.	.	.	.	16ee\	.	8g/L	8dd\L
.	.	.	.	.	16dd\JJ	.	.	.	.	.	.	.	16dd\JJ	.	.	.
.	.	.	.	.	16cc\LL	.	4BB/	-vit	4d\	-vit	4g\	-vit	16cc\LL	.	8g/	8dd\
.	.	.	.	.	16b\	.	.	.	.	.	.	.	16bn\	.	.	.
.	.	.	8dd\	.	16a\	.	.	.	.	.	.	.	16a\	-vit	8g/J	8dd\J
.	.	.	.	.	16g\JJ	.	.	.	.	.	.	.	16g\JJ	.	.	.
!	!	!	!	!	!	!	!	!	!	!	!	!	!LO:PB:g=original	!	!LO:LB:g=original	!
=7	=7	=7	=7	=7	=7	=7	=7	=7	=7	=7	=7	=7	=7	=7	=7	=7
8GG/L	7	.	8bb\	.	16g\LL	.	8.B\	Spi-	8.d\	Spi-	8.g\	Spi-	8.ff\	Spi-	4r	4r
.	.	.	.	.	16a\	.	.	.	.	.	.	.	.	.	.	.
8GG/	.	.	4bb\	.	16b\	.	.	.	.	.	.	.	.	.	.	.
.	.	.	.	.	16cc\JJ	.	16B\	-ri-	16d\	-ri-	16g\	-ri-	16ff\	-ri-	.	.
8GG/	.	.	.	.	16dd\LL	.	4B\	-tus	4d\	-tus	4g\	-tus	4ff\	-tus	4dd\	4ff\
.	.	.	.	.	16ee\	.	.	.	.	.	.	.	.	.	.	.
8GG/J	.	.	8bb\	.	16ff\	.	.	.	.	.	.	.	.	.	.	.
.	.	.	.	.	16gg\JJ	.	.	.	.	.	.	.	.	.	.	.
!	!	!	!	!	!	!	!	!	!	!	!	!	!	!	!LO:TX:t=P:problem=2\right&colon; global	!
*	*	*	*	*	*	*	*	*	*	*	*	*	*	*	*2\right	*2\right
8GG/L	.	.	8bb\	.	16ff\LL	.	4B\	me-	4d\	me-	4g\	me-	4ff\	me-	2dd\	2ff\
.	.	.	.	.	16gg\	.	.	.	.	.	.	.	.	.	.	.
8GG/	.	.	4bb\	.	16ff\	.	.	.	.	.	.	.	.	.	.	.
.	.	.	.	.	16ee\JJ	.	.	.	.	.	.	.	.	.	.	.
8GG/	.	.	.	.	16ff\LL	.	8B\	-us	8d\	-us	8g\	-us	8ff\	-us	.	.
.	.	.	.	.	16dd\	.	.	.	.	.	.	.	.	.	.	.
8GG/J	.	.	8bb\	.	16b\	.	8B\	in	8d\	in	8g\	in	8ff\	in	.	.
.	.	.	.	.	16a\JJ	.	.	.	.	.	.	.	.	.	.	.
=8	=8	=8	=8	=8	=8	=8	=8	=8	=8	=8	=8	=8	=8	=8	=8	=8
8GG/L	6 4	.	16e/LL	.	16g\LL	.	4c\	De-	4c\	De-	4g\	De-	4ee\	De-	4r	4r
.	.	.	16f/	.	16a\	.	.	.	.	.	.	.	.	.	.	.
8GG/	.	.	16g/	.	16b\	.	.	.	.	.	.	.	.	.	.	.
.	.	.	16a/JJ	.	16cc\JJ	.	.	.	.	.	.	.	.	.	.	.
8GG/	.	.	16b\LL	.	16dd\LL	.	4G\	-o	4c\	-o	4g\	-o	4ee\	-o	4cc\	4ee\
.	.	.	16cc\	.	16ee\	.	.	.	.	.	.	.	.	.	.	.
8GG/J	.	.	16dd\	.	16ff\	.	.	.	.	.	.	.	.	.	.	.
.	.	.	16ee\JJ	.	16gg\JJ	.	.	.	.	.	.	.	.	.	.	.
!LO:LB:g=original	!	!	!	!	!	!	!	!	!	!	!	!	!	!	!	!
8GG/L	.	.	16cc\LL	.	16ee\LL	.	8G\	sa-	8c\	Sa-	8g\	Sa-	8ee\	Sa-	2cc\	2ee\
.	.	.	16dd\	.	16ff\	.	.	.	.	.	.	.	.	.	.	.
8GG/	.	.	16cc\	.	16ee\	.	8G\	-lu-	8c\	-lu-	8g\	-lu-	8ee\	-lu-	.	.
.	.	.	16b\JJ	.	16dd\JJ	.	.	.	.	.	.	.	.	.	.	.
8GG/	.	.	16cc\LL	.	16ee\LL	.	8G\	-ta-	8c\	-ta-	8g\	-ta-	8ee\	-ta-	.	.
.	.	.	16g\	.	16cc\	.	.	.	.	.	.	.	.	.	.	.
8GG/J	.	.	16e\	.	16g\	.	8G\	-ri	8c\	-ri	8g\	-ri	8ee\	-ri	.	.
.	.	.	16c\JJ	.	16e\JJ	.	.	.	.	.	.	.	.	.	.	.
!	!	!	!	!	!LO:LB:g=original	!	!	!	!LO:LB:g=original	!	!	!	!	!	!	!LO:LB:g=original
=9	=9	=9	=9	=9	=9	=9	=9	=9	=9	=9	=9	=9	=9	=9	=9	=9
8GG/L	5	.	8B/L	.	16g\LL	.	8G\	me-	8B\	me-	8g\	me-	8dd\	me-	8g/L	8dd\L
.	.	.	.	.	(16a\	.	.	.	.	.	.	.	.	.	.	.
8GG/J	.	.	16g/L	.	16b\	.	8G\	-o	8B\	-o	8g\	-o	8dd\	-o	8g/J	8dd\J
.	.	.	16a/JJ	.	16cc\JJ)	.	.	.	.	.	.	.	.	.	.	.
4r	.	.	16b/LL	.	16dd\LL	.	4r	.	4r	.	4r	.	4r	.	4r	4r
.	.	.	16g/	.	16bb\	.	.	.	.	.	.	.	.	.	.	.
.	.	.	16cc/	.	16ff#X\	.	.	.	.	.	.	.	.	.	.	.
.	.	.	16b/JJ	.	16gg\JJ	.	.	.	.	.	.	.	.	.	.	.
2r	.	.	4ffn\	.	4ffn\	.	2r	.	2r	.	2r	.	4ff\	Qui-	2r	2r
.	.	.	8ff\L	.	8ff\L	.	.	.	.	.	.	.	8ff\	-a	.	.
.	.	.	8ee\J	.	8ee\J	.	.	.	.	.	.	.	8ee\	res-	.	.
!	!	!	!LO:LB:g=original	!	!	!	!LO:LB:g=original	!	!	!	!	!	!	!	!	!
=10	=10	=10	=10	=10	=10	=10	=10	=10	=10	=10	=10	=10	=10	=10	=10	=10
4F\	4 2	.	16dd\LL	.	16dd\LL	.	4F\	Qui-	4d\	Qui-	4g\	Qui-	16dd\LL	-pe-	8r	4dd\
.	.	.	16cc\JJ	.	16cc\JJ	.	.	.	.	.	.	.	16cc\JJ	.	.	.
.	.	.	4b\	.	4b\	.	.	.	.	.	.	.	4b\	.	8g/	.
8F\L	.	.	.	.	.	.	8F\	-a	8d\	-a	8g\	-a	.	.	4g/	8dd\L
8E\J	6	.	8cc\	.	8cc\	.	8E\	res-	8c\	Res-	8g\	res-	8cc\	-xit	.	8cc\J
16D/LL	.	.	8r	.	8r	.	16D\LL	-pex-	16f\LL	-pe-	4g\	-pe-	8r	.	4r	8r
16C/JJ	.	.	.	.	.	.	16C\JJ	.	16e\JJ	.	.	.	.	.	.	.
!	!	!	!LO:TX:t=P:problem=mixed beam	!	!LO:TX:t=P:problem=mixed beam	!	!	!	!	!	!	!	!	!	!	!LO:TX:t=P:problem=mixed beam
4BB/	.	.	8g/L	.	8f/L	.	4BB/	.	4d\	.	.	.	8g\	hu-	.	8g/L
.	.	.	8ff\	.	8ff\	.	.	.	.	.	4g\	-xi	8ff\	-mi-	8dd\L	8ff\
8C/	.	.	8ee\J	.	8ee\J	.	8C/	-it	8c\	-xit	.	.	8ee\	-li-	8cc\J	8ee\J
!	!	!	!	!	!	!	!	!	!	!	!LO:LB:g=original	!	!LO:LB:g=original	!	!	!
=11	=11	=11	=11	=11	=11	=11	=11	=11	=11	=11	=11	=11	=11	=11	=11	=11
8r	.	.	8dd\L	.	8dd\L	.	8r	.	8r	.	8r	.	8dd\L	-ta-	4g/	4dd\
!LO:TX:t=P:problem=mixed beam	!	!	!	!	!	!	!	!	!	!	!	!	!	!	!	!
8GG/L	.	.	16ff\L	.	16ff\L	.	8GG/	hu-	8d\	hu-	8g\	Hu-	16ff\L	.	.	.
.	.	.	16dd\JJ	.	16dd\JJ	.	.	.	.	.	.	.	16dd\JJ	.	.	.
8F\	4 2	.	8b\L	.	8b\L	.	8F\	-mi-	8d\	-mi-	8g\	-mi-	8b\	.	4f/	8dd\L
8E\J	6	.	8cc\J	.	8cc\J	.	8E\	-li-	8c\	-li-	8g\	-li-	8cc\	-tem	.	8cc\J
8D\L	.	.	4r	.	4r	.	8D\L	-ta-	8B\	-ta-	4g\	-ta-	4r	.	2r	2r
16F\L	.	.	.	.	.	.	16F\L	.	4f\	.	.	.	.	.	.	.
16D\JJ	.	.	.	.	.	.	16D\JJ	.	.	.	.	.	.	.	.	.
8BB/L	.	.	8r	.	8r	.	8BB/	.	.	.	4g\	-tem:	8r	.	.	.
8C/J	.	.	8g/	.	8g/	.	8C/	-tem	8e\	-tem	.	.	8g\	an-	.	.
!	!	!	!	!	!	!	!	!	!LO:LB:g=original	!	!	!	!	!	!	!
=12	=12	=12	=12	=12	=12	=12	=12	=12	=12	=12	=12	=12	=12	=12	=12	=12
!	!	!	!	!	!	!	!	!	!	!	!	!	!	!	!	!LO:TX:a:t=1
8r	.	.	2gg\	.	2gg\	.	8r	.	8r	.	8r	.	2gg\	-cil-	1r	1r
!LO:TX:t=P:problem=mixed beam	!	!	!	!	!	!	!	!	!	!	!LO:TX:a:t=S.	!	!	!	!	!
8GG/L	.	.	.	.	.	.	8GG/	hu-	8d\	hu-	8b\	hu-	.	.	.	.
8G\	.	.	.	.	.	.	8G\	-mi-	8d\	-mi-	8b\	-mi-	.	.	.	.
8E\J	.	.	.	.	.	.	8E\	-li-	8G/	-li-	8cc\	-li-	.	.	.	.
4C\	.	.	8gg\L	.	8gg\L	.	4C/	-ta-	4e\	-ta-	4g\	-ta-	(8gg\L	.	.	.
.	.	.	8ee\	.	8ee\	.	.	.	.	.	.	.	8ee\J)	.	.	.
8r	.	.	8cc\	.	8cc\	.	8C/	-tem	8e\	-tem	8g\	-tem	(8cc\L	-lae	.	.
8C\	6	.	8g\J	.	8g\J	.	8C/	an-	8e\	An-	8g\	an-	8a\J)	.	.	.
=13	=13	=13	=13	=13	=13	=13	=13	=13	=13	=13	=13	=13	=13	=13	=13	=13
!	!	!	!LO:TX:t=P:problem=mixed beam	!	!LO:TX:t=P:problem=mixed beam	!	!	!	!	!	!	!	!	!	!	!
8D\L	6 4	.	16d/LL	.	16d/LL	.	4D\	-cil-	4B\	-cil-	4g\	-cil-	(2g\	Su-	2dd\	2gg\
.	.	.	16b\	.	16b\	.	.	.	.	.	.	.	.	.	.	.
8D\	.	.	16gg\	.	16gg\	.	.	.	.	.	.	.	.	.	.	.
.	.	.	16b\JJ	.	16b\JJ	.	.	.	.	.	.	.	.	.	.	.
!	!	!	!LO:TX:t=P:problem=mixed beam	!	!LO:TX:t=P:problem=mixed beam	!	!	!	!	!	!	!	!	!	!	!
8D\	.	.	16d/LL	.	16d/LL	.	4D\	-lae	4B\	-lae	4g\	-lae	.	.	.	.
.	.	.	16b\	.	16b\	.	.	.	.	.	.	.	.	.	.	.
8D\J	.	.	16gg\	.	16gg\	.	.	.	.	.	.	.	.	.	.	.
.	.	.	16b\JJ	.	16b\JJ	.	.	.	.	.	.	.	.	.	.	.
!	!	!	!	!	!LO:LB:g=original	!	!LO:TX:t=P:problem=ucięty tekst	!	!	!	!	!	!	!	!	!
!LO:LB:g=original	!	!	!LO:TX:t=P:problem=mixed beam	!	!LO:TX:t=P:problem=mixed beam	!	!	!	!	!	!	!	!	!	!	!
8D\L	5	.	16d/LL	.	16d/LL	.	2D\	S[u]-	2d\	Su-	(4g\	su-	2a\)	.	4dd\	8gg\L
.	.	.	16a\	.	16a\	.	.	.	.	.	.	.	.	.	.	.
!	!	!	!LO:TX:a:t=g	!	!	!	!	!	!	!	!	!	!	!	!	!
8D\	.	.	16gg\	.	16gg\	.	.	.	.	.	.	.	.	.	.	16ff#X\L
.	.	.	16a\JJ	.	16a\JJ	.	.	.	.	.	.	.	.	.	.	16ee\JJ
!	!	!	!LO:TX:t=P:problem=mixed beam	!	!	!	!	!	!	!	!	!	!	!	!	!LO:TX:t=P:tr = tr.:problem
8D\	#	.	16d/LL	.	16d/LL	.	.	.	.	.	4f#X\)	.	.	.	4dd\	4ff#t\
.	.	.	16a\	.	16a/	.	.	.	.	.	.	.	.	.	.	.
8D\J	.	.	16ff#X\	.	16ff#X/	.	.	.	.	.	.	.	.	.	.	.
.	.	.	16a\JJ	.	16a/JJ	.	.	.	.	.	.	.	.	.	.	.
!	!	!	!LO:LB:g=original	!	!	!	!LO:LB:g=original	!	!	!	!	!	!	!	!LO:LB:g=original	!
=14	=14	=14	=14	=14	=14	=14	=14	=14	=14	=14	=14	=14	=14	=14	=14	=14
4GG/	.	.	4gg\	.	4gg\	.	4GG/	-ae	4B\	-ae	4d\	-ae	4g\	-ae	4dd\	4gg\
!	!	!	!	!	!	!	!	!	!	!	!	!	!LO:TX:a:t=Solo	!	!	!
4r	.	.	4r	.	4r	.	4r	.	4r	.	8b\	ec-	8dd\	Ec-	4r	4r
.	.	.	.	.	.	.	.	.	.	.	8b\	-ce	8dd\	-ce	.	.
8r	.	.	2r	.	2r	.	2r	.	2r	.	2b\	e-	2dd\	e-	2r	2r
!LO:TX:a:t=S&colon;	!	!	!	!	!	!	!	!	!	!	!	!	!	!	!	!
8GG/L	.	.	.	.	.	.	.	.	.	.	.	.	.	.	.	.
8BB/	.	.	.	.	.	.	.	.	.	.	.	.	.	.	.	.
8GG/J	.	.	.	.	.	.	.	.	.	.	.	.	.	.	.	.
=15	=15	=15	=15	=15	=15	=15	=15	=15	=15	=15	=15	=15	=15	=15	=15	=15
!	!	!	!	!	!	!	!	!	!	!	!	!	!	!	!	!LO:TX:a:t=4.
8r	.	.	1r	.	1r	.	1r	.	1r	.	2a\	.	2cc\	.	1r	1r
8D\L	.	.	.	.	.	.	.	.	.	.	.	.	.	.	.	.
8F#X\	.	.	.	.	.	.	.	.	.	.	.	.	.	.	.	.
8D\J	.	.	.	.	.	.	.	.	.	.	.	.	.	.	.	.
!LO:TX:t=P:problem=mixed beam	!	!	!	!	!	!	!	!	!	!	!	!	!	!	!	!
8G\L	.	.	.	.	.	.	.	.	.	.	4g\	-nim	4b\	-nim	.	.
8GG/	.	.	.	.	.	.	.	.	.	.	.	.	.	.	.	.
8BB/	6	.	.	.	.	.	.	.	.	.	4r	.	8dd\L	ex	.	.
8BB/J	5	.	.	.	.	.	.	.	.	.	.	.	8ff\J	.	.	.
=16	=16	=16	=16	=16	=16	=16	=16	=16	=16	=16	=16	=16	=16	=16	=16	=16
8C/L	4	.	1r	.	1r	.	1r	.	1r	.	1r	.	4.ee\	hoc	1r	1r
8C/	3	.	.	.	.	.	.	.	.	.	.	.	.	.	.	.
8C/	.	.	.	.	.	.	.	.	.	.	.	.	.	.	.	.
8C/J	.	.	.	.	.	.	.	.	.	.	.	.	16dd\LL	be-	.	.
.	.	.	.	.	.	.	.	.	.	.	.	.	16cc\JJ	.	.	.
8C/L	6	.	.	.	.	.	.	.	.	.	.	.	4b\	-a-	.	.
8C/	.	.	.	.	.	.	.	.	.	.	.	.	.	.	.	.
8C/	.	.	.	.	.	.	.	.	.	.	.	.	8b\	-tam	.	.
8C/J	5	.	.	.	.	.	.	.	.	.	.	.	8a\	me	.	.
!	!	!	!	!	!	!	!	!	!	!	!LO:PB:g=original	!	!	!	!	!
=17	=17	=17	=17	=17	=17	=17	=17	=17	=17	=17	=17	=17	=17	=17	=17	=17
!	!	!	!	!	!	!	!	!	!	!	!LO:TX:a:t=S.	!	!	!	!	!
.	.	.	.	.	.	.	.	.	.	.	.	.	8qqg/	.	.	.
8D/L	#	.	1r	.	1r	.	1r	.	2r	.	2r	.	4f#X/	di-	1r	1r
8C/	.	.	.	.	.	.	.	.	.	.	.	.	.	.	.	.
8BB/	6	.	.	.	.	.	.	.	.	.	.	.	4g/	-cent	.	.
8GG/J	.	.	.	.	.	.	.	.	.	.	.	.	.	.	.	.
!	!	!	!	!	!	!	!	!	!	!	!	!	!LO:LB:g=original	!	!	!
2r	.	.	.	.	.	.	.	.	8d\	Om-	8f#X\	om-	8a\	om-	.	.
.	.	.	.	.	.	.	.	.	8d\	-nes	8a\	-nes	8cc\	-nes	.	.
.	.	.	.	.	.	.	.	.	8d\	ge-	8g\	ge-	8b\	ge-	.	.
.	.	.	.	.	.	.	.	.	8d\	-ne-	8b\	-ne-	8dd\	-ne-	.	.
!	!	!	!	!	!	!	!	!	!LO:LB:g=original	!	!	!	!	!	!	!
=18	=18	=18	=18	=18	=18	=18	=18	=18	=18	=18	=18	=18	=18	=18	=18	=18
.	.	.	.	.	.	.	.	.	.	.	8qqb/	.	8qqdd/	.	.	.
1r	.	.	1r	.	1r	.	16D\LL	om-	4.d\	-ra-	4.a\	-ra-	4.cc\	-ra-	1r	1r
.	.	.	.	.	.	.	16E\JJ	.	.	.	.	.	.	.	.	.
.	.	.	.	.	.	.	16F#X\LL	-nes	.	.	.	.	.	.	.	.
.	.	.	.	.	.	.	16G\JJ	.	.	.	.	.	.	.	.	.
.	.	.	.	.	.	.	16A\LL	ge-	.	.	.	.	.	.	.	.
.	.	.	.	.	.	.	16F#\JJ	.	.	.	.	.	.	.	.	.
.	.	.	.	.	.	.	8G\	-ne-	8d\	-ti-	8g\	-ti-	8b\	-ti-	.	.
.	.	.	.	.	.	.	16D\LL	-ra-	4d\	-o-	4g\	-o-	4b\	-o-	.	.
.	.	.	.	.	.	.	16E\	.	.	.	.	.	.	.	.	.
.	.	.	.	.	.	.	16F#X\	-ti-	.	.	.	.	.	.	.	.
.	.	.	.	.	.	.	16G\JJ	.	.	.	.	.	.	.	.	.
.	.	.	.	.	.	.	16A\LL	-o-	4d\	-nes	4f#X\	-nes	4a\	-nes.	.	.
.	.	.	.	.	.	.	16B\	.	.	.	.	.	.	.	.	.
.	.	.	.	.	.	.	16c#X\	-nes	.	.	.	.	.	.	.	.
.	.	.	.	.	.	.	16d\JJ	.	.	.	.	.	.	.	.	.
!LO:LB:g=original	!	!	!	!	!	!	!	!	!	!	!	!	!	!	!	!
=19	=19	=19	=19	=19	=19	=19	=19	=19	=19	=19	=19	=19	=19	=19	=19	=19
!LO:TX:t=P:problem=mixed beam	!	!	!LO:TX:t=P:problem=mixed beam	!	!LO:TX:t=P:problem=mixed beam	!	!	!	!	!	!	!	!	!	!	!
8G\L	6\	.	16cc\LL	.	16cc\LL	.	8A\	Qui-	8d\	qui-	8f#X\	qui-	8cc\	Qui-	2r	2r
.	.	.	16d/JJ	.	16d/JJ	.	.	.	.	.	.	.	.	.	.	.
8F#X\	.	.	4cc\	.	4cc\	.	8F#X\	-a	8d\	-a	8a\	-a	8cc\	-a	.	.
8G\	4	.	.	.	.	.	8G\	fe-	8d\	fe-	8a\	fe-	8cc\	fe-	.	.
8GG/J	3	.	8b\	.	8b\	.	8G\	-cit	8d\	-cit	8g\	-cit	8b\	-cit	.	.
!	!	!	!LO:TX:t=P:problem=mixed beam	!	!LO:TX:t=P:problem=mixed beam	!	!	!	!	!	!	!	!	!	!	!
8GG/L	6 4	.	16ee\LL	.	16ee\LL	.	8G\	mi-	8c\	mi-	8g\	mi-	8ee\	mi-	4cc\	4ee\
.	.	.	16e/JJ	.	16e/JJ	.	.	.	.	.	.	.	.	.	.	.
8GG/	.	.	4ee\	.	4ee\	.	8G\	-hi	8c\	-hi	8g\	-hi	8ee\	-hi	.	.
8GG/	.	.	.	.	.	.	8G\	ma-	8c\	Ma-	8g\	ma-	8ee\	Mag-	8cc\L	8ee\L
8GG/J	5	.	8dd\	.	8dd\	.	8G\	-gna	8B\	-gna	8g\	-gna	8dd\	-na	8g\J	8dd\J
!	!	!	!	!	!	!	!	!	!	!	!	!	!	!	!	!LO:LB:g=original
=20	=20	=20	=20	=20	=20	=20	=20	=20	=20	=20	=20	=20	=20	=20	=20	=20
!	!	!	!LO:TX:t=P:problem=mixed beam	!	!LO:TX:t=P:problem=mixed beam	!	!	!	!	!	!	!	!	!	!	!
4E\	.	.	16gg\LL	.	16gg\LL	.	4E\	qui	4B\	qui	4g\	qui	8r	.	1r	1r
.	.	.	16g\JJ	.	16g/JJ	.	.	.	.	.	.	.	.	.	.	.
.	.	.	4gg\	.	4gg\	.	.	.	.	.	.	.	8gg\	Qui	.	.
!	!	!	!	!	!	!	!LO:LB:g=original	!	!	!	!	!	!	!	!	!
4A\	7	.	.	.	.	.	8A\	po-	8c\	po-	8e\	po-	8gg\	Po-	.	.
.	.	.	16ff#X\LL	.	16ff#X\LL	.	8A\	-tens	8c\	-tens	16a\LL	-tens	16ff#X\LL	-tens	.	.
.	.	.	16ee\JJ	.	16ee\JJ	.	.	.	.	.	16g\JJ	.	16ee\JJ	.	.	.
!	!	!	!	!	!	!	!	!	!	!	!LO:LB:g=original	!	!	!	!	!
8B\L	6\	.	4dd#X\	.	4dd#X\	.	4B\	est	4B\	eſt	4f#X\	est	4dd#X\	eſt,	.	.
8B\	5	.	.	.	.	.	.	.	.	.	.	.	.	.	.	.
8B\	#	.	4b\	.	4b\	.	4B\	et	8r	.	8r	.	4b\	et	.	.
8B\J	.	.	.	.	.	.	.	.	8c#X\	&	8f#X\	et	.	.	.	.
!	!	!	!	!	!	!	!	!	!LO:LB:g=original	!	!	!	!	!	!	!
=21	=21	=21	=21	=21	=21	=21	=21	=21	=21	=21	=21	=21	=21	=21	=21	=21
4B\	4 2	.	8cc\	.	8cc\	.	4B\	San-	8e\	Sanc-	8e\	Sanc-	8cc\	San-	1r	1r
.	.	.	4cc\	.	4cc\	.	.	.	8e\	-tu(m)	8g\	-tum	8cc\	-ctum	.	.
8A\L	.	.	.	.	.	.	8A\L	-ctum	8c\	no-	8e\	no-	8cc\	No-	.	.
8G\J	6	.	[8ee\	.	8ee\	.	8G\J	no-	8c\	-men	8e\	-men	8ee\	-men	.	.
.	.	.	.	.	.	.	.	.	.	.	.	.	8qqee/	.	.	.
4A\	6\ 5	.	4ee\]	.	4ee\	.	8A\	-men	(4c\	E-	2f#X\	e-	2dd#X\	e-	.	.
.	.	.	.	.	.	.	8A\	e-	.	.	.	.	.	.	.	.
4B\	#	.	4dd#Xt\	.	4dd#X\	.	4B\	.	4B#X\)	.	.	.	.	.	.	.
!	!	!	!	!	!LO:LB:g=original	!	!	!	!	!	!	!	!LO:LB:g=original	!	!	!
=22	=22	=22	=22	=22	=22	=22	=22	=22	=22	=22	=22	=22	=22	=22	=22	=22
8E\	.	.	16g/LL	.	16ee\LL	.	4E\	-jus	4B\	-jus.	4e\	-jus	4ee\	-jus	1r	1r
.	.	.	16g/	.	16b\	.	.	.	.	.	.	.	.	.	.	.
!LO:TX:a:t=S&colon;	!	!	!	!	!	!	!	!	!	!	!	!	!	!	!	!
8r	.	.	16a/	.	16cc\	.	.	.	.	.	.	.	.	.	.	.
.	.	.	16g/JJ	.	16b\JJ	.	.	.	.	.	.	.	.	.	.	.
8E\	.	.	16r	.	16r	.	4r	.	4r	.	4r	.	4r	.	.	.
.	.	.	16g/LL	.	16ee\LL	.	.	.	.	.	.	.	.	.	.	.
8r	.	.	16g/	.	16ee\	.	.	.	.	.	.	.	.	.	.	.
.	.	.	16f#X/JJ	.	16dd#X\JJ	.	.	.	.	.	.	.	.	.	.	.
!	!	!	!LO:PB:g=original	!	!	!	!	!	!	!	!	!	!	!	!	!
8AA/	.	.	16r	.	16r	.	2r	.	2r	.	2r	.	2r	.	.	.
.	.	.	16cc\LL	.	16aa\LL	.	.	.	.	.	.	.	.	.	.	.
8r	.	.	16b\	.	16gg\	.	.	.	.	.	.	.	.	.	.	.
.	.	.	16a\JJ	.	16ff#X\JJ	.	.	.	.	.	.	.	.	.	.	.
8BB/	.	.	16e/LL	.	16gg\LL	.	.	.	.	.	.	.	.	.	.	.
.	.	.	16g/	.	16ee\	.	.	.	.	.	.	.	.	.	.	.
8r	.	.	16a/	.	16ff#\	.	.	.	.	.	.	.	.	.	.	.
.	.	.	16f#X/JJ	.	16dd#X\JJ	.	.	.	.	.	.	.	.	.	.	.
=23	=23	=23	=23	=23	=23	=23	=23	=23	=23	=23	=23	=23	=23	=23	=23	=23
!	!	!	!	!	!	!	!	!	!	!	!	!	!	!	!	!LO:TX:a:t=4
!LO:TX:a:t=Adagio	!	!	!LO:TX:a:t=adagio	!LO:DY:b:t=p&colon;	!LO:TX:a:t=Ada(gio)&colon;	!LO:DY:b:t=p&colon;	!LO:TX:a:t=4.	!	!LO:TX:a:t=S&colon;	!	!	!	!LO:TX:a:t=4	!	!LO:TX:a:t=ada&colon;	!LO:TX:t=P:problem=podwójna kreska taktowa
8E\L	.	.	8g/L	p	8ee\L	p	1r	.	4r	.	1r	.	1r	.	1r	1r
8E\	.	.	8g/	.	8ee\	.	.	.	.	.	.	.	.	.	.	.
!	!	!	!	!	!	!	!	!	!LO:TX:a:t=adagio	!	!	!	!	!	!	!
8E\	.	.	8g/	.	8ee\	.	.	.	8e\	Et	.	.	.	.	.	.
8E\J	.	.	8g/J	.	8ee\J	.	.	.	8B\	Mi-	.	.	.	.	.	.
8E\L	.	.	8g/L	.	8ee\L	.	.	.	8G/	-se-	.	.	.	.	.	.
8E\	.	.	8g/	.	8ee\	.	.	.	8E/	-ri	.	.	.	.	.	.
8C\	.	.	8g/	.	8ee\	.	.	.	8g\	Cor-	.	.	.	.	.	.
8C\J	.	.	8g/J	.	8ee\J	.	.	.	16f#X\	-di-	.	.	.	.	.	.
.	.	.	.	.	.	.	.	.	16e\	-a	.	.	.	.	.	.
!LO:PB:g=original	!	!	!	!	!	!	!	!	!	!	!	!	!	!	!	!
=24	=24	=24	=24	=24	=24	=24	=24	=24	=24	=24	=24	=24	=24	=24	=24	=24
!	!	!	!LO:TX:t=P:problem=mixed beam	!	!	!	!	!	!	!	!	!	!	!	!	!
.	.	.	.	.	.	.	.	.	8qqe/	.	.	.	.	.	.	.
8BB/L	#	.	8d#X/L	.	8ff#X\L	.	1r	.	16d#X\	e-	1r	.	1r	.	1r	1r
.	.	.	.	.	.	.	.	.	16d#\	-jus	.	.	.	.	.	.
8BB/	.	.	8d#/	.	8ff#\	.	.	.	8r	.	.	.	.	.	.	.
!	!	!	!	!	!	!	!	!	!LO:LB:g=original	!	!	!	!	!	!	!
8BB/	.	.	8dd#X\	.	8ff#\	.	.	.	8r	.	.	.	.	.	.	.
8BB/J	.	.	8dd#\J	.	8ff#\J	.	.	.	16f#X\	A	.	.	.	.	.	.
.	.	.	.	.	.	.	.	.	16B\	pro-	.	.	.	.	.	.
8C#X/L	7	.	8ee\L	.	8ff#\L	.	.	.	16B\	-ge-	.	.	.	.	.	.
.	.	.	.	.	.	.	.	.	16A#X\	-ni-	.	.	.	.	.	.
8C#/	6\	.	8ee\	.	8ff#\	.	.	.	8A#\	-e	.	.	.	.	.	.
8D#X/	n	.	8a\	.	8ff#\	.	.	.	8r	.	.	.	.	.	.	.
8D#/J	5	.	8a\J	.	8ff#\J	.	.	.	16f#X\	in	.	.	.	.	.	.
.	.	.	.	.	.	.	.	.	16An\	pro-	.	.	.	.	.	.
=25	=25	=25	=25	=25	=25	=25	=25	=25	=25	=25	=25	=25	=25	=25	=25	=25
8E\L	4 #9	.	8a/L	.	8ff\L	.	1r	.	16A/	-ge-	1r	.	1r	.	1r	1r
.	.	.	.	.	.	.	.	.	16G/	-ni-	.	.	.	.	.	.
8E\	3 8	.	8g/	.	8ee\	.	.	.	8G/	-es	.	.	.	.	.	.
8E\	.	.	8b/	.	8ee\	.	.	.	8r	.	.	.	.	.	.	.
8E\J	.	.	8b/J	.	8ee\J	.	.	.	8B\	ti-	.	.	.	.	.	.
8E\L	.	.	8b\L	.	8gg\L	.	.	.	8.g\	-men-	.	.	.	.	.	.
8E\	# 4 3	.	8cc#X\	.	8gg\	.	.	.	.	.	.	.	.	.	.	.
.	.	.	.	.	.	.	.	.	16A#X/	-ti-	.	.	.	.	.	.
8E\	.	.	8cc#\	.	8gg\	.	.	.	4A#/	-bus	.	.	.	.	.	.
8E\J	.	.	8cc#\J	.	8gg\J	.	.	.	.	.	.	.	.	.	.	.
!	!	!	!	!	!LO:LB:g=original	!	!	!	!	!	!	!	!	!	!	!
=26	=26	=26	=26	=26	=26	=26	=26	=26	=26	=26	=26	=26	=26	=26	=26	=26
4D#X\	6	.	8r	.	8r	.	1r	.	16B\LL	e-	1r	.	1r	.	1r	1r
.	.	.	.	.	.	.	.	.	16A#X\JJ	.	.	.	.	.	.	.
!	!	!	!	!	!	!LO:DY:a:t=f&colon;	!	!	!	!	!	!	!	!	!	!
.	.	.	4d#X/	.	8b\	f	.	.	8B\	-um	.	.	.	.	.	.
4r	.	.	.	.	16ff#X\LL	.	.	.	4r	.	.	.	.	.	.	.
.	.	.	.	.	16b\	.	.	.	.	.	.	.	.	.	.	.
.	.	.	8e/	.	16a#X\	.	.	.	.	.	.	.	.	.	.	.
.	.	.	.	.	16gg\JJ	.	.	.	.	.	.	.	.	.	.	.
!	!	!	!	!	!	!	!	!	!LO:LB:g=original	!	!	!	!	!	!	!
2r	.	.	8d#X/L	.	16ff#X\LL	.	.	.	2r	.	.	.	.	.	.	.
.	.	.	.	.	16b\	.	.	.	.	.	.	.	.	.	.	.
.	.	.	8f#X/J	.	16a#X\	.	.	.	.	.	.	.	.	.	.	.
.	.	.	.	.	16an\JJ	.	.	.	.	.	.	.	.	.	.	.
!	!	!	!LO:LB:g=original	!	!	!	!	!	!	!	!	!	!	!	!	!
.	.	.	16e/LL	.	16g/LL	.	.	.	.	.	.	.	.	.	.	.
.	.	.	16cn/	.	16e/	.	.	.	.	.	.	.	.	.	.	.
.	.	.	16A/	.	16cc/	.	.	.	.	.	.	.	.	.	.	.
.	.	.	16B/JJ	.	16d#X/JJ	.	.	.	.	.	.	.	.	.	.	.
=27	=27	=27	=27	=27	=27	=27	=27	=27	=27	=27	=27	=27	=27	=27	=27	=27
!LO:TX:a:t=allo&colon;	!	!	!	!	!LO:TX:a:t=Allo&colon;	!	!	!	!LO:TX:a:t=allo&colon;	!	!LO:TX:a:t=T.	!	!LO:TX:a:t=Tutti&colon;	!	!	!
16E\LL	.	.	8e/	.	8gg\	.	8E\	Fe-	8e\	Fe-	8g#X\	Fe-	8b\	Fe-	4e/	4ee\
16F#X\	.	.	.	.	.	.	.	.	.	.	.	.	.	.	.	.
16G#X\	.	.	4gg#X\	.	4gg\	.	16G\	-cit	16e\	-cit	16g#\	-cit	16b\	-cit	.	.
16A\JJ	.	.	.	.	.	.	16A\	po-	16e\	po-	16g#\	po-	16b\	Po-	.	.
16B\LL	.	.	.	.	.	.	16c#X\	-ten-	16e\	-ten-	16g#\	-ten-	16b\	-ten-	4r	4r
16c\	.	.	.	.	.	.	16d#X\	-ti-	16e\	-ti-	16g#\	-ti-	16b\	-ti-	.	.
16d#X\	.	.	8gg#\	.	8gg\	.	16e\	-am	16e\	-am	16g#\	-am	16b\	-am	.	.
16e\JJ	.	.	.	.	.	.	16dn\	in	16e\	in	16g#\	in	16b\	in	.	.
2dn\	#:4 2	.	16bb\LL	.	16bb\LL	.	8d\	bra-	8e\	Bra-	8g#\	bra-	8b\	Bra-	2r	2r
.	.	.	16aa\	.	16aa\	.	.	.	.	.	.	.	.	.	.	.
!	!	!	!	!	!	!	!	!	!	!	!LO:LB:g=original	!	!	!	!	!
.	.	.	16gg#X\	.	16gg#X\	.	16d\	-chi-	16e\	-chi-	16g#\	-chi-	16b\	-chi-	.	.
!	!	!	!LO:TX:t=P:problem=n above	!	!	!	!	!	!	!	!	!	!	!	!	!
.	.	.	16ffn\JJ	.	16ffn\JJ	.	16d\	-o	16e\	-o	16g#\	-o	16b\	-o	.	.
.	.	.	16ee\LL	.	16ee\LL	.	8d\	su-	8e\	Su-	8g#\	Su-	8b\	Su-	.	.
.	.	.	16dd\	.	16dd\	.	.	.	.	.	.	.	.	.	.	.
.	.	.	16cc\	.	16cc\	.	8d\	-o	8e\	-o	8g#\	-o	8b\	-o,	.	.
.	.	.	16b\JJ	.	16b\JJ	.	.	.	.	.	.	.	.	.	.	.
!	!	!	!	!	!	!	!LO:LB:g=original	!	!	!	!	!	!	!	!	!
=28	=28	=28	=28	=28	=28	=28	=28	=28	=28	=28	=28	=28	=28	=28	=28	=28
16d\LL	.	.	8gg#X\	.	8gg#X\	.	8r	.	8r	.	8r	.	8r	.	2r	2r
16c\	.	.	.	.	.	.	.	.	.	.	.	.	.	.	.	.
16B\	.	.	4gg#\	.	4gg#\	.	16B\LL	dis-	8e\	dis-	8g#X\	dis-	8b\	dis-	.	.
16A\JJ	.	.	.	.	.	.	16A\JJ	.	.	.	.	.	.	.	.	.
!LO:LB:g=original	!	!	!	!	!	!	!	!	!	!	!	!	!	!	!	!
16G#X\LL	.	.	.	.	.	.	8G#X\	-per-	8e\	-per-	8g#\	-per-	8b\	-per-	.	.
16Fn\	.	.	.	.	.	.	.	.	.	.	.	.	.	.	.	.
16E\	.	.	8gg#\	.	8gg#\	.	16E\	-sit	16e\	-sit	16g#\	-sit	16b\	-sit	.	.
16D\JJ	.	.	.	.	.	.	16D\	su-	16e\	Su-	16g#\	su-	16b\	Su-	.	.
!	!	!	!	!	!	!	!	!	!LO:LB:g=original	!	!	!	!	!	!	!
8C/L	6	.	16a\LL	.	16a\LL	.	8D/	-per-	8e\	-per-	8a\	-per-	8ee\	-per-	8r	8r
.	.	.	16b\	.	16b\	.	.	.	.	.	.	.	.	.	.	.
8AA/	.	.	16cc\	.	16cc\	.	8AA\	-bos	8c\	-bos	8a\	-bos	8ee\	-bos	8e/L	8ee\L
.	.	.	16dd\JJ	.	16dd\JJ	.	.	.	.	.	.	.	.	.	.	.
8AA/	.	.	16ee\LL	.	16ee\LL	.	4r	.	8c\	men-	8a\	men-	8ee\	men-	8e/	8ee\
.	.	.	16ff\	.	16ff\	.	.	.	.	.	.	.	.	.	.	.
!	!	!	!	!	!LO:TX:t=P:problem=# above	!	!	!	!	!	!	!	!	!	!	!
8AA/J	.	.	16gg#X\	.	16gg#X\	.	.	.	8c\	-te	8a\	-te	8ee\	-te	8e/J	8ee\J
.	.	.	16aa\JJ	.	16aa\JJ	.	.	.	.	.	.	.	.	.	.	.
!	!	!	!	!	!LO:LB:g=original	!	!	!	!	!	!	!	!	!	!	!
=29	=29	=29	=29	=29	=29	=29	=29	=29	=29	=29	=29	=29	=29	=29	=29	=29
8r	.	.	2ff\	.	2ff\	.	4r	.	4c\	cor-	4a\	cor-	[2ff\	Cor-	4r	4r
8AA/	6	.	.	.	.	.	.	.	.	.	.	.	.	.	.	.
4BB/	.	.	.	.	.	.	8BB/	men-	4d\	-dis	4g\	-dis	.	.	4dd\	4ff\
.	.	.	.	.	.	.	8BB/	-te	.	.	.	.	.	.	.	.
4C/	4:3 9:4	.	16ff\LL	.	16ff\LL	.	8C/	cor-	8d\L	Su-	4g\	.	8ff\]	.	8dd\	8ff\L
.	.	.	16dd\	.	16dd\	.	.	.	.	.	.	.	.	.	.	.
.	.	.	16ee\	.	16ee\	.	8C/	-dis	8c\J	.	.	.	8ee\	-dis	4cc\	8ee\J
.	.	.	16cc\JJ	.	16cc\JJ	.	.	.	.	.	.	.	.	.	.	.
!	!	!	!	!	!	!	!	!	!	!	!	!	!LO:LB:g=original	!	!	!
8F\L	6 5	.	4ddT\	.	4dd\	.	(8F\L	su-	8c\L	.	8a\L	su-	4dd\	Su-	.	4dd\
!	!	!	!	!	!	!	!	!	!	!	!	!	!	!	!LO:LB:g=original	!
8G\J	.	.	.	.	.	.	8G\J)	.	8B\J	.	8g\J	.	.	.	16g\LL	.
.	.	.	.	.	.	.	.	.	.	.	.	.	.	.	16g\JJ	.
=30	=30	=30	=30	=30	=30	=30	=30	=30	=30	=30	=30	=30	=30	=30	=30	=30
4C/	.	.	4cc\	.	4cc\	.	4C/	-i	4c\	-i	4g\	-i	4ee\	-i	4e/	4cc\
!	!	!	!	!	!	!	!LO:TX:a:t=S&colon;	!	!	!	!	!	!	!	!	!
8r	.	.	4r	.	4r	.	4c\	de-	4r	.	4r	.	4r	.	4r	4r
8C/	.	.	.	.	.	.	.	.	.	.	.	.	.	.	.	.
!	!	!LO:DY:a:t=p&colon;	!	!	!	!	!	!	!	!	!	!	!	!	!	!
4BB/	.	p	2r	.	2r	.	16d\LL	-po-	2r	.	2r	.	2r	.	2r	2r
.	.	.	.	.	.	.	16c\JJ	.	.	.	.	.	.	.	.	.
.	.	.	.	.	.	.	16B\LL	-su-	.	.	.	.	.	.	.	.
.	.	.	.	.	.	.	16A\JJ	.	.	.	.	.	.	.	.	.
8r	.	.	.	.	.	.	8G\	-it	.	.	.	.	.	.	.	.
8BB/	.	.	.	.	.	.	8F\	po-	.	.	.	.	.	.	.	.
!	!	!	!	!	!	!	!	!	!	!	!LO:LB:g=original	!	!	!	!	!
=31	=31	=31	=31	=31	=31	=31	=31	=31	=31	=31	=31	=31	=31	=31	=31	=31
!	!	!	!	!	!	!	!	!	!	!	!	!	!LO:TX:a:t=7	!	!	!LO:TX:a:t=7.
8C\L	.	.	4r	.	4r	.	16E\LL	-ten-	1r	.	1r	.	1r	.	1r	1r
.	.	.	.	.	.	.	16D\JJ	.	.	.	.	.	.	.	.	.
8c\J	.	.	.	.	.	.	8C\	-tes	.	.	.	.	.	.	.	.
!LO:TX:a:t=T&colon;	!	!	!	!LO:DY:b:t=p&colon;	!	!LO:DY:a:t=p&colon;	!	!	!	!	!	!	!	!	!	!
32C|/LLL	.	.	2ee\	p	2gg\	p	8r	.	.	.	.	.	.	.	.	.
32BB|/	.	.	.	.	.	.	.	.	.	.	.	.	.	.	.	.
32AA|/	.	.	.	.	.	.	.	.	.	.	.	.	.	.	.	.
32GG|/	.	.	.	.	.	.	.	.	.	.	.	.	.	.	.	.
!	!	!	!	!	!	!	!LO:LB:g=original	!	!	!	!	!	!	!	!	!
32FF|/	.	.	.	.	.	.	8c\	de	.	.	.	.	.	.	.	.
32EE|/	.	.	.	.	.	.	.	.	.	.	.	.	.	.	.	.
32DD|/	.	.	.	.	.	.	.	.	.	.	.	.	.	.	.	.
32CC|/JJJ	.	.	.	.	.	.	.	.	.	.	.	.	.	.	.	.
!LO:TX:a:t=S&colon;	!	!	!	!	!	!	!	!	!	!	!	!	!	!	!	!
8r	.	.	.	.	.	.	4G\	se-	.	.	.	.	.	.	.	.
8BB/L	.	.	.	.	.	.	.	.	.	.	.	.	.	.	.	.
8GG/	.	.	4dd\	.	4ff\	.	4F\	.	.	.	.	.	.	.	.	.
8BB/J	.	.	.	.	.	.	.	.	.	.	.	.	.	.	.	.
!LO:LB:g=original	!	!	!LO:LB:g=original	!	!	!	!	!	!	!	!	!	!	!	!	!
=32	=32	=32	=32	=32	=32	=32	=32	=32	=32	=32	=32	=32	=32	=32	=32	=32
!	!	!	!LO:TX:t=P:problem=mixed beam	!	!	!	!	!	!	!	!	!	!	!	!	!
8C/L	.	.	8g/L	.	16ee\LL	.	4E\	-de	1r	.	1r	.	1r	.	1r	1r
.	.	.	.	.	16ff\	.	.	.	.	.	.	.	.	.	.	.
8CC/J	.	.	16ee\L	.	16gg\	.	.	.	.	.	.	.	.	.	.	.
.	.	.	16dd\JJ	.	16ff\JJ	.	.	.	.	.	.	.	.	.	.	.
4C/	.	.	4cc\	.	4ee\	.	8r	.	.	.	.	.	.	.	.	.
!	!	!	!	!	!	!	!LO:TX:a:t=S&colon;	!	!	!	!	!	!	!	!	!
.	.	.	.	.	.	.	8C/	et	.	.	.	.	.	.	.	.
2r	.	.	2r	.	2r	.	8E\	ex-	.	.	.	.	.	.	.	.
.	.	.	.	.	.	.	8G\	-al-	.	.	.	.	.	.	.	.
.	.	.	.	.	.	.	8B-X\	-ta-	.	.	.	.	.	.	.	.
.	.	.	.	.	.	.	8d\	-vit	.	.	.	.	.	.	.	.
=33	=33	=33	=33	=33	=33	=33	=33	=33	=33	=33	=33	=33	=33	=33	=33	=33
!LO:TX:a:t=T&colon;	!	!	!	!	!	!	!	!	!	!	!	!	!	!	!	!
16C|\LL	.	.	1r	.	2r	.	(4c\	hu-	1r	.	1r	.	1r	.	1r	1r
16D|\	.	.	.	.	.	.	.	.	.	.	.	.	.	.	.	.
16E|\	.	.	.	.	.	.	.	.	.	.	.	.	.	.	.	.
16F|\JJ	.	.	.	.	.	.	.	.	.	.	.	.	.	.	.	.
16G|\LL	.	.	.	.	.	.	8.B-X\)	.	.	.	.	.	.	.	.	.
32C|\L	.	.	.	.	.	.	.	.	.	.	.	.	.	.	.	.
32D|\J	.	.	.	.	.	.	.	.	.	.	.	.	.	.	.	.
16E|\	.	.	.	.	.	.	.	.	.	.	.	.	.	.	.	.
16C|\JJ	.	.	.	.	.	.	16B-\	-mi-	.	.	.	.	.	.	.	.
4F\	.	.	.	.	8r	.	8A\	-les	.	.	.	.	.	.	.	.
.	.	.	.	.	8ff\L	.	8F\	e-	.	.	.	.	.	.	.	.
8r	.	.	.	.	8gg\	.	8E\	-su-	.	.	.	.	.	.	.	.
!LO:TX:a:t=S&colon;	!	!	!	!	!	!	!LO:N:vis=4	!	!	!	!	!	!	!	!	!
8D\	.	.	.	.	8aa\J	.	8F\	-ri-	.	.	.	.	.	.	.	.
=34	=34	=34	=34	=34	=34	=34	=34	=34	=34	=34	=34	=34	=34	=34	=34	=34
8C\L	-7	.	2r	.	8aa\	.	4B-X\	-en-	1r	.	1r	.	1r	.	1r	1r
8D\	.	.	.	.	4gg\	.	.	.	.	.	.	.	.	.	.	.
8E\	.	.	.	.	.	.	8B-\	-tes	.	.	.	.	.	.	.	.
8F\J	.	.	.	.	8ff\	.	8A\	im-	.	.	.	.	.	.	.	.
.	.	.	.	.	.	.	8qqA	.	.	.	.	.	.	.	.	.
8BB-X/L	7	.	4ddd\	.	2r	.	4.G\	-ple-	.	.	.	.	.	.	.	.
8BB-/	6	.	.	.	.	.	.	.	.	.	.	.	.	.	.	.
8BBn/	.	.	4dd\	.	.	.	.	.	.	.	.	.	.	.	.	.
8BB/J	5	.	.	.	.	.	8F\	-vit	.	.	.	.	.	.	.	.
=35	=35	=35	=35	=35	=35	=35	=35	=35	=35	=35	=35	=35	=35	=35	=35	=35
8C/L	.	.	8ee|\L	.	8r	.	16E\LL	bo-	1r	.	1r	.	1r	.	1r	1r
.	.	.	.	.	.	.	16G\JJ	.	.	.	.	.	.	.	.	.
8C/J	.	.	8ee|\	.	8cc|\L	.	8C/	-nis.	.	.	.	.	.	.	.	.
4C/	.	.	8ff\	.	(8dd\	.	8r	.	.	.	.	.	.	.	.	.
!	!	!	!	!	!	!	!LO:PB:g=original	!	!	!	!	!	!	!	!	!
.	.	.	8gg\J	.	8ee\J)	.	8C/	et	.	.	.	.	.	.	.	.
!	!	!	!	!	!LO:LB:g=original	!	!	!	!	!	!	!	!	!	!	!
16r	.	.	2r	.	2r	.	8.c\	di-	.	.	.	.	.	.	.	.
16C\LL	.	.	.	.	.	.	.	.	.	.	.	.	.	.	.	.
16E\	.	.	.	.	.	.	.	.	.	.	.	.	.	.	.	.
16F\JJ	.	.	.	.	.	.	16c\	-vi-	.	.	.	.	.	.	.	.
8G\L	.	.	.	.	.	.	8c\	-tes	.	.	.	.	.	.	.	.
8F\J	.	.	.	.	.	.	8c\	di-	.	.	.	.	.	.	.	.
!LO:LB:g=original	!	!	!	!	!	!	!	!	!	!	!	!	!	!	!	!
=36	=36	=36	=36	=36	=36	=36	=36	=36	=36	=36	=36	=36	=36	=36	=36	=36
8E\L	7	.	2r	.	8r	.	16d\LL	-mi-	1r	.	1r	.	1r	.	1r	1r
.	.	.	.	.	.	.	16c\JJ	.	.	.	.	.	.	.	.	.
8E\	6	.	.	.	8gg\	.	4c\	-sit	.	.	.	.	.	.	.	.
8E\	-	.	.	.	16bb-X\LL	.	.	.	.	.	.	.	.	.	.	.
.	.	.	.	.	16aa\J	.	.	.	.	.	.	.	.	.	.	.
8E\J	5	.	.	.	8gg\J	.	8B-X\	in	.	.	.	.	.	.	.	.
!LO:TX:t=P:problem=mixed beam	!	!	!	!	!	!	!	!	!	!	!	!	!	!	!	!
8E\L	.	.	8r	.	4ff\	.	8A\L	a-	.	.	.	.	.	.	.	.
*	*	*	*	*	*	*	*Xtuplet	*	*	*	*	*	*	*	*	*
8BB-X/	6	.	16dd\LL	.	.	.	24B-\L	.	.	.	.	.	.	.	.	.
.	.	.	.	.	.	.	24A\	.	.	.	.	.	.	.	.	.
.	.	.	16bb-X\JJ	.	.	.	.	.	.	.	.	.	.	.	.	.
.	.	.	.	.	.	.	24G\JJ	.	.	.	.	.	.	.	.	.
.	.	.	8qqff/	.	.	.	8qqF/	.	.	.	.	.	.	.	.	.
8C/	4	.	4eet\	.	4r	.	4GT\	.	.	.	.	.	.	.	.	.
8CC/J	5 3	.	.	.	.	.	.	.	.	.	.	.	.	.	.	.
=37	=37	=37	=37	=37	=37	=37	=37	=37	=37	=37	=37	=37	=37	=37	=37	=37
!	!	!	!	!	!	!LO:DY:a:t=p&colon;	!	!	!	!	!	!	!	!	!	!
4FF/	.	.	8r	.	8r	p	4F\	-nes	1r	.	1r	.	1r	.	1r	1r
.	.	.	(8c/L	.	8cc\L	.	.	.	.	.	.	.	.	.	.	.
4r	.	.	8d/)	.	8bn\	.	4r	.	.	.	.	.	.	.	.	.
.	.	.	8Bn/J	.	8ff\J	.	.	.	.	.	.	.	.	.	.	.
2r	.	.	8c/L	.	8ee\L	.	2r	.	.	.	.	.	.	.	.	.
.	.	.	16d/L	.	8b-X\	.	.	.	.	.	.	.	.	.	.	.
.	.	.	16e/JJ	.	.	.	.	.	.	.	.	.	.	.	.	.
.	.	.	8f/L	.	8a\	.	.	.	.	.	.	.	.	.	.	.
.	.	.	8B-X/J	.	8e\J	.	.	.	.	.	.	.	.	.	.	.
=38	=38	=38	=38	=38	=38	=38	=38	=38	=38	=38	=38	=38	=38	=38	=38	=38
!LO:TX:a:t=T&colon;	!	!	!	!	!	!LO:DY:a:t=f&colon;	!	!	!	!	!	!	!	!	!	!
2F\	.	.	4A/	.	4f/	f	8r	.	8r	.	8r	.	8r	.	4c/	4cc\
.	.	.	.	.	.	.	8F\	Sus-	8c\	Sus-	8a\	Sus-	8cc\	Sus-	.	.
!	!	!	!	!LO:DY:a:t=f&colon;	!	!	!	!	!	!	!	!	!	!	!	!
.	.	.	4r	f	4r	.	8F\	-ce-	8c\	-ce-	8a\	-ce-	8cc\	-ce-	4c/	4cc\
.	.	.	.	.	.	.	8F\	-pit	8c\	-pit	8a\	-pit	8cc\	-pit	.	.
2E\	.	.	2r	.	2r	.	16E\	Is-	16e\	Is-	16g\	Is-	8cc#X\	Is-	2r	2r
.	.	.	.	.	.	.	16E\	-ra-	16e\	-ra-	16g\	-ra-	.	.	.	.
.	.	.	.	.	.	.	8E\	-el	8A/	-el	8g\	-el	16cc#\	-ra-	.	.
.	.	.	.	.	.	.	.	.	.	.	.	.	16cc#\	-el	.	.
!	!	!	!	!	!	!	!LO:LB:g=original	!	!LO:LB:g=original	!	!	!	!	!	!	!
.	.	.	.	.	.	.	8E\	pu-	8A/	pu-	8g\	pu-	8cc#\	Pu-	.	.
.	.	.	.	.	.	.	16E\	-e-	16A/	-e-	16g\	-e-	16cc#\	-e-	.	.
.	.	.	.	.	.	.	16E\	-rum	16A/	-rum	16g\	-rum	16cc#\	-rum	.	.
!	!	!	!LO:LB:g=original	!	!	!	!	!	!	!	!	!	!	!	!	!
=39	=39	=39	=39	=39	=39	=39	=39	=39	=39	=39	=39	=39	=39	=39	=39	=39
!	!	!	!	!	!	!	!	!	!	!	!	!	!	!	!	!LO:TX:a:t=2
8D\L	.	.	8r	.	8r	.	8D\	su-	8A/	Su-	8f\	Su-	8dd\	Su-	1r	1r
8D\J	.	.	8f/L	.	8dd\	.	8D\	-um	8A/	-um	8f\	-um	8dd\	-um	.	.
4r	.	.	8g/	.	16bb-X\LL	.	4r	.	4r	.	4r	.	4r	.	.	.
.	.	.	.	.	16dd\	.	.	.	.	.	.	.	.	.	.	.
.	.	.	8a/J	.	16cc#X\	.	.	.	.	.	.	.	.	.	.	.
.	.	.	.	.	16aa\JJ	.	.	.	.	.	.	.	.	.	.	.
2r	.	.	4G/	.	16bb-X\LL	.	2r	.	2r	.	2r	.	2r	.	.	.
.	.	.	.	.	16dd\	.	.	.	.	.	.	.	.	.	.	.
.	.	.	.	.	16cc#X\	.	.	.	.	.	.	.	.	.	.	.
.	.	.	.	.	16b-X\JJ	.	.	.	.	.	.	.	.	.	.	.
.	.	.	4A/	.	16a/LL	.	.	.	.	.	.	.	.	.	.	.
.	.	.	.	.	16g/	.	.	.	.	.	.	.	.	.	.	.
.	.	.	.	.	16f/	.	.	.	.	.	.	.	.	.	.	.
.	.	.	.	.	16e/JJ	.	.	.	.	.	.	.	.	.	.	.
!	!	!	!	!	!LO:LB:g=original	!	!	!	!	!	!	!	!	!	!	!
=40	=40	=40	=40	=40	=40	=40	=40	=40	=40	=40	=40	=40	=40	=40	=40	=40
8r	.	.	8d/	.	8d/	.	4r	.	1r	.	4r	.	8r	.	1r	1r
8F\L	6	.	4dd\	.	4dd\	.	.	.	.	.	.	.	4dd\	re-	.	.
8F\	.	.	.	.	.	.	8F\	re-	.	.	8a\	Re-	.	.	.	.
8F\J	.	.	8ee\	.	8ee\	.	8F\	-cor-	.	.	8a\	-cor-	8ee\	-cor-	.	.
*	*	*	*Xtuplet	*	*Xtuplet	*	*	*	*	*	*	*	*	*	*	*
!	!	!	!	!	!	!	!	!	!	!	!	!	!	!	!	!
8F\L	.	.	24ff\LL	.	24ff\LL	.	8F\	-da-	.	.	8a\	-da-	8ff\	-da-	.	.
.	.	.	24ee\	.	24ee\	.	.	.	.	.	.	.	.	.	.	.
.	.	.	24dd\JJ	.	24dd\JJ	.	.	.	.	.	.	.	.	.	.	.
8F\	.	.	4aa\	.	4aa\	.	8F\	-tus	.	.	8a\	-tus	8dd\	-tus	.	.
8F\	.	.	.	.	.	.	8F\	re-	.	.	8a\	re-	8dd\	re-	.	.
8F\J	.	.	8gg\	.	8gg\	.	8F\	-cor-	.	.	8a\	-cor-	8dd\	-cor-	.	.
!	!	!	!	!	!	!	!	!	!	!	!LO:LB:g=original	!	!	!	!	!
=41	=41	=41	=41	=41	=41	=41	=41	=41	=41	=41	=41	=41	=41	=41	=41	=41
8F\L	.	.	24ff\LL	.	24ff\LL	.	8F\	-da-	8r	.	8a\	-da-	8dd\	-da-	2r	2r
.	.	.	24ee\	.	24ee\	.	.	.	.	.	.	.	.	.	.	.
.	.	.	24dd\JJ	.	24dd\JJ	.	.	.	.	.	.	.	.	.	.	.
8F\	.	.	4aa\	.	4aa\	.	16F\	-tus	8d\	Mi-	16a\	-tum	16dd\	-tus	.	.
.	.	.	.	.	.	.	16F\	mi-	.	.	16a\	mi-	16dd\	mi-	.	.
8F\	.	.	.	.	.	.	8F\	-se-	8d\	-se-	8a\	-se-	8cc\	-se-	.	.
8F\J	5	.	8cc\	.	8cc\	.	8F\	-ri-	8d\	-ri	8a\	-ri-	8cc\	-ri-	.	.
!LO:LB:g=original	!	!	!	!	!	!	!	!	!	!	!	!	!	!	!	!
!LO:TX:t=P:problem=mixed beam	!	!	!	!	!	!	!	!	!	!	!	!	!	!	!	!
8G\L	.	.	24bn\LL	.	24bn\LL	.	8G\	-cor-	8d\	Cor-	8g\	-cor-	16b\	-cor-	4r	4r
.	.	.	24a\	.	24a\	.	.	.	.	.	.	.	.	.	.	.
!	!	!	!	!	!	!	!	!	!	!	!	!	!LO:LB:g=original	!	!	!
.	.	.	.	.	.	.	.	.	.	.	.	.	16b\	-di-	.	.
.	.	.	24g\JJ	.	24g\JJ	.	.	.	.	.	.	.	.	.	.	.
8G\	.	.	4dd\	.	4dd\	.	16G\	-di-	16d\	-di-	16g\	-di-	8b\	-a	.	.
.	.	.	.	.	.	.	16G\	-ae	16f\	-ae	16g\	-a	.	.	.	.
8BBn/	6	.	.	.	.	.	4BBn/	su-	4f\	Su-	4g\	su-	4dd\	Su-	8r	8r
8BB/J	5	.	8f/	.	8f/	.	.	.	.	.	.	.	.	.	8g/	8dd\
!	!	!	!	!	!	!	!LO:LB:g=original	!	!	!	!	!	!	!	!	!
=42	=42	=42	=42	=42	=42	=42	=42	=42	=42	=42	=42	=42	=42	=42	=42	=42
!	!	!	!	!	!LO:TX:t=P:problem=mixed beam	!	!	!	!	!	!	!	!	!	!	!
4C/	.	.	4e/	.	8e/L	.	4C/	-ae	4e\	-ae	4g\	-ae	4cc\	-ae	4cc\	4ee\
.	.	.	.	.	8ccc\	.	.	.	.	.	.	.	.	.	.	.
4r	.	.	8r	.	8bbn\	.	4r	.	4r	.	4r	.	4r	.	4r	4r
.	.	.	16d/LL	.	8ff\J	.	.	.	.	.	.	.	.	.	.	.
.	.	.	16Bn/JJ	.	.	.	.	.	.	.	.	.	.	.	.	.
!	!	!	!LO:TX:t=P:problem=mixed beam	!	!	!	!	!	!	!	!	!	!	!	!	!
4r	.	.	8c/L	.	8ee\L	.	2r	.	2r	.	2r	.	2r	.	2r	2r
.	.	.	8ff\J	.	8aa\	.	.	.	.	.	.	.	.	.	.	.
!	!	!	!LO:TX:t=P:problem=mixed beam	!	!	!	!	!	!	!	!	!	!	!	!	!
8r	.	.	8ee\L	.	8gg\	.	.	.	.	.	.	.	.	.	.	.
!LO:TX:a:t=S&colon;	!	!	!	!	!	!	!	!	!	!	!	!	!	!	!	!
8G\	.	.	16f/L	.	8b\J	.	.	.	.	.	.	.	.	.	.	.
.	.	.	16G/JJ	.	.	.	.	.	.	.	.	.	.	.	.	.
!	!	!	!	!	!	!	!	!	!LO:LB:g=original	!	!	!	!	!	!	!LO:LB:g=original
=43	=43	=43	=43	=43	=43	=43	=43	=43	=43	=43	=43	=43	=43	=43	=43-	=43
!	!	!	!	!	!	!	!LO:TX:a:t=S&colon;	!	!	!	!	!	!	!	!LO:TX:t=P:problem=brak kreski taktowej	!LO:TX:a:t=5.
4C/	.	.	4e/	.	4cc\	.	8r	.	8r	.	1r	.	1r	.	1r	1r
.	.	.	.	.	.	.	8c\	Si-	8c\	Si-	.	.	.	.	.	.
8r	.	.	4r	.	4r	.	8Bn\	-cut	8d\	-cut	.	.	.	.	.	.
8C/	.	.	.	.	.	.	8c\	lo-	8e\	Lo-	.	.	.	.	.	.
.	.	.	.	.	.	.	8qqB/	.	8qqe/	.	.	.	.	.	.	.
8BBn/L	.	.	2r	.	2r	.	4.d\	-cu-	4.f\	-cu-	.	.	.	.	.	.
8GG/J	.	.	.	.	.	.	.	.	.	.	.	.	.	.	.	.
4C/	.	.	.	.	.	.	.	.	.	.	.	.	.	.	.	.
.	.	.	.	.	.	.	8c\	-tus	8e\	-tus	.	.	.	.	.	.
!	!	!	!LO:LB:g=original	!	!	!	!	!	!	!	!	!	!	!	!	!
=44	=44	=44	=44	=44	=44	=44	=44	=44	=44	=44	=44	=44	=44	=44	=44	=44
!LO:TX:t=P:problem=mixed beam	!	!	!LO:TX:a:t=2	!	!	!	!	!	!	!	!	!	!	!	!	!
.	.	.	.	.	.	.	8qqB/	.	8qqe/	.	.	.	.	.	.	.
8G/L	4:3	.	1r	.	1r	.	4Bn\	est	4d\	eſt	4r	.	1r	.	1r	1r
8GG/J	.	.	.	.	.	.	.	.	.	.	.	.	.	.	.	.
4r	.	.	.	.	.	.	8r	.	4r	.	4b\	ad	.	.	.	.
.	.	.	.	.	.	.	8G\	ad	.	.	.	.	.	.	.	.
4r	.	.	.	.	.	.	16A\LL	Pa-	2r	.	4cc\	Pa-	.	.	.	.
.	.	.	.	.	.	.	16B\	.	.	.	.	.	.	.	.	.
.	.	.	.	.	.	.	16c\	.	.	.	.	.	.	.	.	.
.	.	.	.	.	.	.	16A\JJ	.	.	.	.	.	.	.	.	.
8r	.	.	.	.	.	.	16d\LL	.	.	.	4a\	-tres	.	.	.	.
.	.	.	.	.	.	.	16c\	.	.	.	.	.	.	.	.	.
8D\	.	.	.	.	.	.	16B\	-tres	.	.	.	.	.	.	.	.
.	.	.	.	.	.	.	16A\JJ	.	.	.	.	.	.	.	.	.
=45	=45	=45	=45	=45	=45	=45	=45	=45	=45	=45	=45	=45	=45	=45	=45	=45
4G\	.	.	1r	.	1r	.	8G\	nos-	1r	.	8b\L	nos-	4r	.	1r	1r
.	.	.	.	.	.	.	8c\	-tros	.	.	8cc\J	.	.	.	.	.
4c\	.	.	.	.	.	.	8r	.	.	.	4cc\	-tros	4gg\	ad	.	.
.	.	.	.	.	.	.	8c\	a-	.	.	.	.	.	.	.	.
4r	.	.	.	.	.	.	24F#X\LL	-bra-	.	.	8.cc\	A-	4gg\	Pa-	.	.
.	.	.	.	.	.	.	24G\	.	.	.	.	.	.	.	.	.
.	.	.	.	.	.	.	24A\JJ	.	.	.	.	.	.	.	.	.
.	.	.	.	.	.	.	8F#X\	.	.	.	.	.	.	.	.	.
.	.	.	.	.	.	.	.	.	.	.	16cc\	-bra-	.	.	.	.
!	!	!	!	!	!	!	!LO:LB:g=original	!	!	!	!LO:LB:g=original	!	!LO:SIC:v:s=ff#	!	!	!
8r	.	.	.	.	.	.	16B\LL	-ham	.	.	8f#X\	-ham	4ff\	-tres	.	.
.	.	.	.	.	.	.	16A\JJ	.	.	.	.	.	.	.	.	.
8BB/	.	.	.	.	.	.	16G\LL	et	.	.	8a\	et	.	.	.	.
.	.	.	.	.	.	.	16F#X\JJ	.	.	.	.	.	.	.	.	.
!LO:LB:g=original	!	!	!	!	!LO:LB:g=original	!	!	!	!	!	!	!	!	!	!	!
=46	=46	=46	=46	=46	=46	=46	=46	=46	=46	=46	=46	=46	=46	=46	=46	=46
!	!	!	!	!	!	!	!	!	!	!	!	!	!LO:SIC:v:s=ff#	!	!	!
4E\	7:6	.	2r	.	2r	.	16E\LL	se-	1r	.	8b\	Se-	4ff\	Noſ-	1r	1r
.	.	.	.	.	.	.	16F#X\JJ	.	.	.	.	.	.	.	.	.
.	.	.	.	.	.	.	16G\	-mi-	.	.	16b\	-mi-	.	.	.	.
.	.	.	.	.	.	.	16E\	-ni	.	.	16b\	-ni	.	.	.	.
4A\	6\	.	.	.	.	.	16A\LL	e-	.	.	8a\	e-	4ee\	-tros	.	.
.	.	.	.	.	.	.	16G\JJ	.	.	.	.	.	.	.	.	.
.	.	.	.	.	.	.	16F#X\LL	-jus	.	.	16a\	-jus	.	.	.	.
.	.	.	.	.	.	.	16E\JJ	.	.	.	16a\	in	.	.	.	.
8r	.	.	4r	.	4r	.	8D\	in	.	.	8.a\	sae-	8.ee\	A-	.	.
8D\	#	.	.	.	.	.	16E\LL	sae-	.	.	.	.	.	.	.	.
.	.	.	.	.	.	.	16F#X\JJ	-cu-	.	.	16g\	-cu-	16ee\	-bra-	.	.
4G\	.	.	8r	.	8r	.	4G\	-la.	.	.	4g\	-la	8dd\	-ha(m)	.	.
.	.	.	8G/	.	8G/	.	.	.	.	.	.	.	8dd\	et	.	.
=47	=47	=47	=47	=47	=47	=47	=47	=47	=47	=47	=47	=47	=47	=47	=47	=47
!	!	!	!LO:TX:t=P:problem=mixed beam	!	!LO:TX:t=P:problem=mixed beam	!	!	!	!	!	!	!	!	!	!	!
8GG/	.	.	16B/LL	.	16g/LL	.	1r	.	1r	.	1r	.	8dd\	Se-	1r	1r
.	.	.	16b\	.	16dd\	.	.	.	.	.	.	.	.	.	.	.
8r	.	.	16cc\	.	16ee\	.	.	.	.	.	.	.	16cc\	-mi-	.	.
.	.	.	16b\JJ	.	16dd\JJ	.	.	.	.	.	.	.	16cc\	-ni	.	.
8GG/	.	.	16r	.	16r	.	.	.	.	.	.	.	8cc\	E-	.	.
.	.	.	16e/LL	.	16gg\LL	.	.	.	.	.	.	.	.	.	.	.
8r	.	.	16e/	.	16gg\	.	.	.	.	.	.	.	16cc\	-jus	.	.
.	.	.	16d/JJ	.	16ff#X\JJ	.	.	.	.	.	.	.	16cc\	in	.	.
8E\	.	.	16r	.	16r	.	.	.	.	.	.	.	8.cc\	Sae-	.	.
.	.	.	16a\LL	.	16ccc\LL	.	.	.	.	.	.	.	.	.	.	.
8r	.	.	16gg\	.	16bb\	.	.	.	.	.	.	.	.	.	.	.
.	.	.	16ff#X\JJ	.	16aa\JJ	.	.	.	.	.	.	.	16b\	-cu-	.	.
8D\	.	.	16gg\LL	.	16bb\LL	.	.	.	.	.	.	.	4b\	-la.	.	.
.	.	.	16ee\	.	16gg\	.	.	.	.	.	.	.	.	.	.	.
8r	.	.	16cc\	.	16aa\	.	.	.	.	.	.	.	.	.	.	.
.	.	.	16a\JJ	.	16ff#X\JJ	.	.	.	.	.	.	.	.	.	.	.
=48	=48	=48	=48	=48	=48	=48	=48	=48	=48	=48	=48	=48	=48	=48	=48	=48
!	!	!	!	!	!	!	!	!	!	!	!	!	!LO:TX:t=P:problem=zbędne t.48-49	!	!	!
1ryy	.	.	1ryy	.	1ryy	.	1ryy	.	1ryy	.	1ryy	.	1r	.	1ryy	1ryy
=49	=49	=49	=49	=49	=49	=49	=49	=49	=49	=49	=49	=49	=49	=49	=49	=49
1ryy	.	.	1ryy	.	1ryy	.	1ryy	.	1ryy	.	1ryy	.	1r	.	1ryy	1ryy
!	!	!	!	!	!	!	!LO:LB:g=original	!	!	!	!	!	!LO:LB:g=original	!	!LO:LB:g=original	!
=50||	=50||	=50||	=50||	=50||	=50||	=50||	=50||	=50||	=50||	=50||	=50||	=50||	=50||	=50||	=50||	=50||
*M3/4	*	*	*M3/4	*	*M3/4	*	*M3/4	*	*M3/4	*	*M3/4	*	*M3/4	*	*M3/4	*M3/4
*	*	*	*	*	*k[b-]	*	*	*	*	*	*	*	*	*	*	*
!LO:TX:a:t=adagio.	!	!	!LO:TX:a:t=andante	!	!LO:TX:a:t=and&colon;	!	!	!	!LO:TX:a:t=S&colon;	!	!	!	!	!	!	!
!LO:TX:a:t=T&colon;	!	!	!	!LO:DY:b:t=f&colon;	!LO:TX:t=P:problem=znak b- przed	!	!	!	!LO:TX:a:t=ada&colon;	!	!	!	!	!	!	!LO:TX:b:t=Gloria.
8GG/L	.	.	2b-X\	f	8G/L	.	4.G\	Glo-	4.B-X\	Glo-	4.g\	Glo-	4.dd\	Glo-	2.r	2.r
!	!	!	!	!	!LO:TX:t=P:problem=mixed beam	!	!	!	!	!	!	!	!	!	!	!
8GG/	.	.	.	.	8dd\J	.	.	.	.	.	.	.	.	.	.	.
8GG/	.	.	.	.	4gg\	.	.	.	.	.	.	.	.	.	.	.
8GG/	.	.	.	.	.	.	8G\	-ri-	8B-\	-ri-	8g\	-ri-	8dd\	-ri-	.	.
8GG/	.	.	4cc\	.	4ee-X\	.	4G\	-a	4c\	-a	4g\	-a	4ee-X\	-a	.	.
8GG/J	6 4	.	.	.	.	.	.	.	.	.	.	.	.	.	.	.
=51	=51	=51	=51	=51	=51	=51	=51	=51	=51	=51	=51	=51	=51	=51	=51	=51
8F#X\L	.	.	4cc\	.	4ee-X\	.	4F#X\	Pa-	4c\	Pa-	4a\	Pa-	4ee-X\	Pa-	2.r	2.r
8F#\	.	.	.	.	.	.	.	.	.	.	.	.	.	.	.	.
8F#\	.	.	4b-X\	.	4dd\	.	4F#\	-tri	4B-X\	-tri	4d\	-tri	4dd\	-tri	.	.
8F#\	6 -4	.	.	.	.	.	.	.	.	.	.	.	.	.	.	.
8F#\	.	.	4a/	.	4cc\	.	4F#\	et	4A\	&	4d\	et	4cc\	et	.	.
8F#\J	5	.	.	.	.	.	.	.	.	.	.	.	.	.	.	.
!	!	!	!	!	!LO:LB:g=original	!	!	!	!LO:LB:g=original	!	!LO:LB:g=original	!	!	!	!	!
=52	=52	=52	=52	=52	=52	=52	=52	=52	=52	=52	=52	=52	=52	=52	=52	=52
*	*	*	*^	*	*	*	*	*	*	*	*	*	*	*	*	*
4G\	-	.	8g/L	4reyy	.	8b-X\L	.	8G\	Fi-	8G/	Fi-	8d\	fi-	8b-X\	Fi-	2.r	2.r
.	.	.	8f/J	.	.	8a\J	.	8D\	-li-	8F#X/	-li-	8d\	-li-	8a\	-li-	.	.
8r	.	.	4b-X/	4reyy	.	4g/	.	4GG/	-o	4G/	-o	4d\	-o	4g\	-o	.	.
8G\L	-	.	.	.	.	.	.	.	.	.	.	.	.	.	.	.	.
8G\	6 4	.	4cc/	4a\	.	8ee-X\L	.	8G\	et	8c\	&	8c\	et	8ee-X\	et	.	.
8G\J	.	.	.	.	.	8ee-\J	.	8G\	Spi-	8c\	Spi-	8g\	Spi-	8ee-\	Spi-	.	.
*	*	*	*v	*v	*	*	*	*	*	*	*	*	*	*	*	*	*
!LO:LB:g=original	!	!	!LO:LB:g=original	!	!	!	!	!	!	!	!	!	!	!	!	!
=53	=53	=53	=53	=53	=53	=53	=53	=53	=53	=53	=53	=53	=53	=53	=53	=53
8F#X\L	-7	.	4cc\	.	8ee\L	.	4.F\	-ri-	8c\L	-ri-	4a\	-ri-	4ee-X\	-ri-	2.r	2.r
8F#\	.	.	.	.	8dd\	.	.	.	8B-X\J	.	.	.	.	.	.	.
8F#\	.	.	4a\	.	8aa\	.	.	.	4A/	-tu-	4d\	-tu-	4dd\	-tu-	.	.
8F#\	6	.	.	.	8a\J	.	8F\	-tu-	.	.	.	.	.	.	.	.
8F#\	.	.	4a\	.	8.cc\L	.	4F\	-i	4A/	-i	4d\	-i	4cc\	-i	.	.
8F#\J	5	.	.	.	.	.	.	.	.	.	.	.	.	.	.	.
.	.	.	.	.	32b-\LL	.	.	.	.	.	.	.	.	.	.	.
.	.	.	.	.	32cc\JJJ	.	.	.	.	.	.	.	.	.	.	.
=54	=54	=54	=54	=54	=54	=54	=54	=54	=54	=54	=54	=54	=54	=54	=54	=54
2G\	-	.	8g/L	.	8b-X/L	.	4G\	San-	8G/L	San-	4d\	San-	8b-X\L	San-	2.r	2.r
.	.	.	8f#X/J	.	8a/J	.	.	.	8F#X/J	.	.	.	8a\J	.	.	.
.	.	.	4d/	.	4g/	.	4G\	-cto	4G/	-cto	4d\	-cto	4gn\	-cto	.	.
4G\	n	.	4d/	.	4bn\	.	8G\	Si-	8d\	Si-	8g\	si-	8bn\	Si-	.	.
.	.	.	.	.	.	.	8G\	-cut	8d\	-cut	8g\	-cut	8b\	-cut	.	.
=55	=55	=55	=55	=55	=55	=55	=55	=55	=55	=55	=55	=55	=55	=55	=55	=55
4Fn\	n:4 2	.	4d/	.	4bny\	.	4Fn\	e-	8d\	e-	8g\	e-	4b\	e-	2.r	2.r
.	.	.	.	.	.	.	.	.	8d\	-rat	8g\	-rat	.	.	.	.
4E-X\	6	.	4g/	.	4cc\	.	4E-X\	-rat	4c\	in	4g\	in	4cc\	-rat	.	.
!	!	!	!	!	!	!	!LO:LB:g=original	!	!	!	!	!	!	!	!	!
8BBn/L	.	.	4g/	.	8dd\L	.	8BBn/	in	8G\L	prin-	4g\	prin-	8dd\	in	.	.
8C/J	-	.	.	.	8ee-X\J	.	8C/	prin-	8c\J	.	.	.	8ee-X\	prin-	.	.
=56	=56	=56	=56	=56	=56	=56	=56	=56	=56	=56	=56	=56	=56	=56	=56	=56
!	!	!	!LO:TX:t=P:problem=mixed beam	!	!	!	!	!	!	!	!	!	!LO:SIC:v:s=ee-	!	!	!
4GG/	-:6:5 4:3	.	8g/L	.	8ee-X\L	.	8G\	-ci-	8c\	-ci-	8g\	-ci-	8ee\	-ci-	2.r	2.r
.	.	.	8g/	.	8dd\J	.	8G\	-pi-	8Bn\	-pi-	8g\	-pi-	8dd\	-pi-	.	.
8r	.	.	8g/	.	4dd\	.	4G\	-o	4B\	-o	4g\	-o	4dd\	-o	.	.
8BBn/L	.	.	8g/	.	.	.	.	.	.	.	.	.	.	.	.	.
!	!	!	!	!	!	!	!	!	!LO:PB:g=original	!	!	!	!	!	!	!
8GG/	.	.	8dd\	.	4ff\	.	8G\L	et	4d\	&	4g\	et	4ff\	e	.	.
8BB/J	.	.	8dd\J	.	.	.	8Bn\J	.	.	.	.	.	.	.	.	.
!	!	!	!	!	!	!	!	!	!	!	!LO:LB:g=original	!	!LO:LB:g=original	!	!	!
=57	=57	=57	=57	=57	=57	=57	=57	=57	=57	=57	=57	=57	=57	=57	=57	=57
!	!	!	!	!	!	!	!LO:SIC:v:t=nunc	!	!	!	!	!	!	!	!	!
.	.	.	.	.	8qqff/	.	.	.	.	.	.	.	8qqff/	.	.	.
4C/	-	.	8cc/L	.	8ee-X\L	.	4c\	nuc	2c\	nunc	2g\	nunc	2ee-X\	Nunc	2.r	2.r
.	.	.	8g/J	.	8ccc\J	.	.	.	.	.	.	.	.	.	.	.
2A-X\	7:6\	.	4g/	.	4ee-\	.	2A-X\	et	.	.	.	.	.	.	.	.
.	.	.	4f#X/	.	8dd\L	.	.	.	8d\L	&	4f#X\	et	(8dd\L	et	.	.
.	.	.	.	.	8cc\J	.	.	.	8e-X\J	.	.	.	8cc\J)	.	.	.
!	!	!	!	!	!LO:LB:g=original	!	!	!	!	!	!	!	!	!	!	!
=58	=58	=58	=58	=58	=58	=58	=58	=58	=58	=58	=58	=58	=58	=58	=58	=58
4G\	-:6:5 4:3	.	8g/L	.	4b-X\	.	4G\	sem-	4e-X\	Sem-	4g\	Sem-	4cc\	Sem-	2.r	2.r
.	.	.	8e-X/J	.	.	.	.	.	.	.	.	.	.	.	.	.
4GG/	.	.	4d/	.	4bn\	.	4G\	-per	4d\	-per	4g\	-per	4bn\	-per,	.	.
!	!	!	!	!	!	!LO:DY:a:t=p&colon;	!	!	!	!	!	!	!	!	!	!
4r	.	.	4r	.	4gg\	p	4r	.	4r	.	4r	.	8gg\	et	.	.
.	.	.	.	.	.	.	.	.	.	.	.	.	8gg\	in	.	.
=59	=59	=59	=59	=59	=59	=59	=59	=59	=59	=59	=59	=59	=59	=59	=59	=59
!LO:TX:a:t=2	!	!	!	!	!	!	!LO:TX:a:t=3	!	!	!	!LO:TX:a:t=3	!	!	!	!	!
2.r	.	.	8r	.	2bn\	.	2.r	.	2.r	.	2.r	.	4.bn\	Sae-	2.r	2.r
.	.	.	8G/L	.	.	.	.	.	.	.	.	.	.	.	.	.
.	.	.	8d/	.	.	.	.	.	.	.	.	.	.	.	.	.
.	.	.	8f/	.	.	.	.	.	.	.	.	.	8b\	-cu-	.	.
.	.	.	8e-X/	.	4cc\	.	.	.	.	.	.	.	4cc\	-la	.	.
.	.	.	8d/J	.	.	.	.	.	.	.	.	.	.	.	.	.
=60	=60	=60	=60	=60	=60	=60	=60	=60	=60	=60	=60	=60	=60	=60	=60	=60
2.r	.	.	8c/L	.	4ee-X\	.	2.r	.	2.r	.	2.r	.	(4ee-X\	Sae-	2.r	2.r
.	.	.	8c/	.	.	.	.	.	.	.	.	.	.	.	.	.
.	.	.	8c/	.	4cc\	.	.	.	.	.	.	.	4cc\)	.	.	.
.	.	.	8c/	.	.	.	.	.	.	.	.	.	.	.	.	.
.	.	.	8c/	.	4a-X/	.	.	.	.	.	.	.	4a-X\	-cu-	.	.
.	.	.	8c/J	.	.	.	.	.	.	.	.	.	.	.	.	.
!	!	!	!LO:LB:g=original	!	!	!	!	!	!	!	!	!	!	!	!	!
=61	=61	=61	=61	=61	=61	=61	=61	=61	=61	=61	=61	=61	=61	=61	=61	=61
2.r	.	.	4d/	.	4f#X/	.	2.r	.	2.r	.	2.r	.	4f#X/	-lo-	2.r	2.r
.	.	.	16G/LL	.	16g/LL	.	.	.	.	.	.	.	4g/	-rum.	.	.
.	.	.	16B/	.	16d/	.	.	.	.	.	.	.	.	.	.	.
.	.	.	16d/	.	16Bny/	.	.	.	.	.	.	.	.	.	.	.
.	.	.	16g/JJ	.	16d/JJ	.	.	.	.	.	.	.	.	.	.	.
!	!	!	!	!	!	!	!	!	!	!	!	!	!LO:TX:a:t=Presto	!	!	!
.	.	.	4G/	.	4G/	.	.	.	.	.	.	.	4r	.	.	.
=62	=62	=62	=62	=62	=62	=62	=62	=62	=62	=62	=62||	=62	=62	=62	=62	=62
!LO:TX:a:t=allo..	!	!	!LO:TX:t=P:problem=podwójna kreska	!	!LO:TX:b:t=presto	!	!	!	!	!	!	!	!	!	!	!
!LO:TX:a:t=Presto	!	!	!LO:TX:a:t=Presto	!	!LO:TX:a:t=Presto	!	!LO:TX:a:t=Presto	!	!LO:TX:a:t=Preſto	!	!LO:TX:a:t=Presto	!	!	!	!LO:TX:a:t=Presto	!LO:TX:a:t=Preſto.
2.r	.	.	2.r	.	4g/	.	2.r	.	2.r	.	2.r	.	(4g\	A-	2.r	2.r
.	.	.	.	.	4a/	.	.	.	.	.	.	.	4an\)	.	.	.
.	.	.	.	.	4bn/	.	.	.	.	.	.	.	4bn\	-men	.	.
!LO:LB:g=original	!	!	!	!	!	!	!	!	!	!	!	!	!	!	!	!
=63	=63	=63	=63	=63	=63	=63	=63	=63	=63	=63	=63	=63	=63	=63	=63	=63
!LO:TX:a:t=T&colon;	!	!	!	!	!	!	!	!	!	!	!	!	!	!	!	!
4C\	.	.	4ee\	.	2cc\	.	4C/	a-	2.r	.	4e\	A-	2cc\	a-	2cc\	4ee\
4D\	.	.	4ff\	.	.	.	4D/	.	.	.	4f\	.	.	.	.	4ff\
4E\	.	.	4gg\	.	4b-X\	.	4E/	.	.	.	4g\	.	4b-X\	-men	4cc\	4gg\
=64	=64	=64	=64	=64	=64	=64	=64	=64	=64	=64	=64	=64	=64	=64	=64	=64
2F\	2:4	.	2aa\	.	4a\	.	2F\	.	2.r	.	2a\	.	4a\	a-	4cc\	2aa\
.	.	.	.	.	4bny\	.	.	.	.	.	.	.	(4bn\	.	4c/	.
4E\	6	.	4gg\	.	4cc\	.	4E\	-men	.	.	4g\	-men	4cc\)	.	4r	4gg\
!	!	!	!	!	!	!	!LO:LB:g=original	!	!	!	!	!	!	!	!	!
=65	=65	=65	=65	=65	=65	=65	=65	=65	=65	=65	=65	=65	=65	=65	=65	=65
4D\	.	.	4ff\	.	2dd\	.	4D\	a-	2.r	.	4f\	a-	2dd\	.	2dd\	4ff\
4E\	.	.	4gg\	.	.	.	4E\	.	.	.	4g\	.	.	.	.	4gg\
!	!	!	!	!	!LO:TX:b:t=V.S.	!	!	!	!	!	!	!	!	!	!	!
4F\	.	.	4aa\	.	4cc\	.	4F\	.	.	.	4a\	.	4cc\	-men	4dd\	8aa\L
.	.	.	.	.	.	.	.	.	.	.	.	.	.	.	.	8ff\J
!	!	!	!	!	!LO:PB:g=original	!	!	!	!	!	!	!	!	!	!	!
=66	=66	=66	=66	=66	=66	=66	=66	=66	=66	=66	=66	=66	=66	=66	=66	=66
2G\	3:4	.	4bb\	.	4bny\	.	2G\	.	2.r	.	4b\	.	4b\	a-	2g\	2dd\
.	.	.	4aa\	.	4cc\	.	.	.	.	.	2a\	-men	(4cc\	.	.	.
4F\	6	.	4a/	.	4dd\	.	4F\	-men	.	.	.	.	4dd\)	.	4r	4r
=67	=67	=67	=67	=67	=67	=67	=67	=67	=67	=67	=67	=67	=67	=67	=67	=67
!	!	!	!	!	!	!	!	!	!	!	!	!	!	!	!	!LO:TX:a:t=3.
4E\	.	.	4g/	.	2ee\	.	4E\	a-	4G/	A-	2.g\	a-	2ee\	.	2.r	2.r
4F\	.	.	4a/	.	.	.	4F\	.	4A/	.	.	.	.	.	.	.
4G\	.	.	4b/	.	4dd\	.	4G\	.	4B/	.	.	.	4dd\	-men	.	.
!	!	!	!	!	!	!	!	!	!	!	!LO:LB:g=original	!	!LO:LB:g=original	!	!	!
=68	=68	=68	=68	=68	=68	=68	=68	=68	=68	=68	=68	=68	=68	=68	=68	=68
2A\	o4	.	2cc\	.	4cc\	.	2A\	.	2c\	.	4e\	.	(4cc\	a-	2.r	2.r
.	.	.	.	.	4dd\	.	.	.	.	.	4f\	.	4dd\	.	.	.
4G\	6	.	4b\	.	4ee\	.	4G\	-men	4B\	-men	4g\	-men	4ee\)	.	.	.
=69	=69	=69	=69	=69	=69	=69	=69	=69	=69	=69	=69	=69	=69	=69	=69	=69
4F\	.	.	4a\	.	2ff\	.	4F\	a-	4A\	a-	2.r	.	2ff\	.	2.r	2.r
4G\	.	.	4b\	.	.	.	4G\	.	4B\	.	.	.	.	.	.	.
4A\	6	.	4cc\	.	4ee\	.	4A\	.	4c\	.	.	.	4ee\	-men	.	.
!	!	!	!LO:LB:g=original	!	!	!	!	!	!	!	!	!	!	!	!	!
=70	=70	=70	=70	=70	=70	=70	=70	=70	=70	=70	=70	=70	=70	=70	=70	=70
4B\	.	.	2f/	.	2dd\	.	4B\	.	2f\	.	2.g\	a-	2dd\	a-	4dd\	8ff\L
.	.	.	.	.	.	.	.	.	.	.	.	.	.	.	.	8ee\J
!	!	!	!	!	!	!	!	!	!	!	!	!	!	!	!LO:LB:g=original	!
4G\	.	.	.	.	.	.	4G\	.	.	.	.	.	.	.	4g/	4dd\
4c\	.	.	4e/	.	4cc\	.	4c\	.	4e\	.	.	.	4cc\	.	4g/	4cc\
!	!	!	!	!	!	!	!	!	!LO:LB:g=original	!	!	!	!	!	!	!
=71	=71	=71	=71	=71	=71	=71	=71	=71	=71	=71	=71	=71	=71	=71	=71	=71
2G\	6:5 4:3	.	4e/	.	4cc\	.	2G\	-men	4e\	.	2g\	-men	4cc\	.	4e/	4cc\
.	.	.	4d/	.	8bny/L	.	.	.	4d\	-men	.	.	4b\	-men.	4g/	4dd\
.	.	.	.	.	8g/	.	.	.	.	.	.	.	.	.	.	.
4r	.	.	4r	.	8d/	.	4r	.	4r	.	4r	.	4r	.	4r	4r
.	.	.	.	.	8Bny/J	.	.	.	.	.	.	.	.	.	.	.
=72	=72	=72	=72	=72	=72	=72	=72	=72	=72	=72	=72	=72	=72	=72	=72	=72
!LO:TX:a:t=4	!	!	!	!	!	!	!LO:TX:a:t=5	!	!	!	!	!	!LO:TX:a:t=5	!	!	!LO:TX:a:t=5.
2.r	.	.	4gg\	.	4G/	.	2.r	.	2.r	.	2.r	.	2.r	.	2.r	2.r
.	.	.	4aa\	.	4r	.	.	.	.	.	.	.	.	.	.	.
.	.	.	4bb\	.	4r	.	.	.	.	.	.	.	.	.	.	.
=73	=73	=73	=73	=73	=73	=73	=73	=73	=73	=73	=73	=73	=73	=73	=73	=73
!	!	!	!	!	!LO:TX:t=P:problem=mixed beam	!	!	!	!	!	!	!	!	!	!	!
2.r	.	.	2ccc\	.	8ee\L	.	2.r	.	2.r	.	2.r	.	2.r	.	2.r	2.r
.	.	.	.	.	8aa\	.	.	.	.	.	.	.	.	.	.	.
.	.	.	.	.	8ff#X\	.	.	.	.	.	.	.	.	.	.	.
.	.	.	.	.	8dd\	.	.	.	.	.	.	.	.	.	.	.
.	.	.	4bb\	.	8gg\	.	.	.	.	.	.	.	.	.	.	.
.	.	.	.	.	8g/J	.	.	.	.	.	.	.	.	.	.	.
=74	=74	=74	=74	=74	=74	=74	=74	=74	=74	=74	=74	=74	=74	=74	=74	=74
!	!	!	!	!	!LO:TX:t=P:problem=mixed beam	!	!	!	!	!	!	!	!	!	!	!
2.r	.	.	2bb\	.	8dd\L	.	2.r	.	2.r	.	2.r	.	2.r	.	2.r	2.r
.	.	.	.	.	8gg\	.	.	.	.	.	.	.	.	.	.	.
.	.	.	.	.	8ee\	.	.	.	.	.	.	.	.	.	.	.
.	.	.	.	.	8cc\	.	.	.	.	.	.	.	.	.	.	.
.	.	.	4aa\	.	8ff#X\	.	.	.	.	.	.	.	.	.	.	.
.	.	.	.	.	8f#y/J	.	.	.	.	.	.	.	.	.	.	.
!	!	!	!	!	!LO:LB:g=original	!	!	!	!	!	!	!	!	!	!	!
=75	=75	=75	=75	=75	=75	=75	=75	=75	=75	=75	=75	=75	=75	=75	=75	=75
!	!	!	!	!	!LO:TX:t=P:problem=mixed beam	!	!	!	!	!	!	!	!	!	!	!
2.r	.	.	2aa\	.	8cc\L	.	2.r	.	2.r	.	2.r	.	2.r	.	2.r	2.r
.	.	.	.	.	8ff#X\	.	.	.	.	.	.	.	.	.	.	.
.	.	.	.	.	8dd\	.	.	.	.	.	.	.	.	.	.	.
.	.	.	.	.	8bny\	.	.	.	.	.	.	.	.	.	.	.
.	.	.	4gg\	.	8ee\	.	.	.	.	.	.	.	.	.	.	.
.	.	.	.	.	8e/J	.	.	.	.	.	.	.	.	.	.	.
*clefC4	*	*	*	*	*	*	*	*	*	*	*	*	*	*	*	*
!LO:LB:g=original	!	!	!	!	!	!	!	!	!	!	!	!	!	!	!	!
=76	=76	=76	=76	=76	=76	=76	=76	=76	=76	=76	=76	=76	=76	=76	=76	=76
4B|\	.	.	8ee\L	.	4gg#X\	.	2.r	.	4B\	a-	2.r	.	2.r	.	2.r	2.r
.	.	.	8dd\	.	.	.	.	.	.	.	.	.	.	.	.	.
4c|\	.	.	8cc\	.	4aa\	.	.	.	4c\	.	.	.	.	.	.	.
.	.	.	8a\	.	.	.	.	.	.	.	.	.	.	.	.	.
4d|\	.	.	8g#X\	.	4bbny\	.	.	.	4d\	.	.	.	.	.	.	.
.	.	.	8e\J	.	.	.	.	.	.	.	.	.	.	.	.	.
*clefF4	*	*	*	*	*	*	*	*	*	*	*	*	*	*	*	*
!	!	!	!	!	!	!	!LO:LB:g=original	!	!	!	!	!	!	!	!	!LO:LB:g=original
=77	=77	=77	=77	=77	=77	=77	=77	=77	=77	=77	=77	=77	=77	=77	=77	=77
!LO:TX:a:t=T&colon;	!	!	!	!	!	!	!	!	!	!	!	!	!	!	!	!
4A\	.	.	4cc\	.	2ccc\	.	4A\	a-	4e\	.	2.a\	a-	4cc\	a-	4e/	4ee\
4B\	.	.	4dd\	.	.	.	4B\	.	4d\	.	.	.	4dd\	.	4r	4r
4c\	6	.	4ee\	.	4r	.	4c\	.	4c\	.	.	.	4ee\	.	4r	4r
=78	=78	=78	=78	=78	=78	=78	=78	=78	=78	=78	=78	=78	=78	=78	=78	=78
4d\	6	.	2ff\	.	2gg#X\	.	4d\	.	4B\	.	2g#X\	.	2ff\	.	4r	4r
4B\	6\	.	.	.	.	.	4B\	.	4d\	.	.	.	.	.	4dd\	4dd\
4c\	6	.	4ee\	.	4aa\	.	4c\	-men	4c\	-men	4a\	-men	4ee\	-men	4e/	4cc\
=79	=79	=79	=79	=79	=79	=79	=79	=79	=79	=79	=79	=79	=79	=79	=79	=79
8C|\L	.	.	2.r	.	2.r	.	2.r	.	2.r	.	2.r	.	2.r	.	2.r	2.r
8E|\	.	.	.	.	.	.	.	.	.	.	.	.	.	.	.	.
8G|\	.	.	.	.	.	.	.	.	.	.	.	.	.	.	.	.
8A|\	.	.	.	.	.	.	.	.	.	.	.	.	.	.	.	.
8B|\	.	.	.	.	.	.	.	.	.	.	.	.	.	.	.	.
8c|\J	.	.	.	.	.	.	.	.	.	.	.	.	.	.	.	.
!	!	!	!LO:LB:g=original	!	!	!	!	!	!	!	!	!	!	!	!	!
=80	=80	=80	=80	=80	=80	=80	=80	=80	=80	=80	=80	=80	=80	=80	=80	=80
2.B-X\	# 2	.	2ccc\	.	4c/	.	2B-X\	a-	2c\	A-	4.g\	a-	4g\	a-	4g/	4ee\
.	.	.	.	.	8ee\L	.	.	.	.	.	.	.	8ee\L	.	8cc\L	8ee\L
.	.	.	.	.	8ff\J	.	.	.	.	.	8f\	.	8ff\J	.	8dd\J	8ff\J
.	.	.	4ee\	.	4gg\	.	4B-\	-men	4c\	-men	4e\	-men	4gg\	-men	4ee\	4gg\
=81	=81	=81	=81	=81	=81	=81	=81	=81	=81	=81	=81	=81	=81	=81	=81	=81
!	!	!	!	!	!	!	!	!	!	!	!	!	!	!	!	!LO:TX:a:t=1.
8B-X|\L	.	.	2.r	.	2.r	.	2.r	.	2.r	.	2.r	.	2.r	.	2.r	2.r
8G|\	.	.	.	.	.	.	.	.	.	.	.	.	.	.	.	.
8E|\	.	.	.	.	.	.	.	.	.	.	.	.	.	.	.	.
8D|\	.	.	.	.	.	.	.	.	.	.	.	.	.	.	.	.
8C|\	.	.	.	.	.	.	.	.	.	.	.	.	.	.	.	.
8BB-X|\J	.	.	.	.	.	.	.	.	.	.	.	.	.	.	.	.
!	!	!	!	!	!	!	!	!	!	!	!LO:LB:g=original	!	!	!	!	!
=82	=82	=82	=82	=82	=82	=82	=82	=82	=82	=82	=82	=82	=82	=82	=82	=82
*	*	*	*	*	*	*	*	*	*	*ij	*	*	*	*	*	*
2.AA/	6	.	2ff\	.	4c/	.	2A\	a-	2c\	A-	2f\	a-	4cc\	a-	4c/	4cc\
.	.	.	.	.	8dd\L	.	.	.	.	.	.	.	8dd\L	.	4c/	4cc\
.	.	.	.	.	8ee\J	.	.	.	.	.	.	.	8ee\J	.	.	.
.	.	.	4f/	.	4ff\	.	4A\	-men	4c\	-men	4f\	-men	4ff\	-men	4c/	4cc\
*	*	*	*	*	*	*	*	*	*	*Xij	*	*	*	*	*	*
!LO:LB:g=original	!	!	!	!	!	!	!	!	!	!LO:LB:g=original	!	!	!	!	!LO:LB:g=original	!
=83	=83	=83	=83	=83	=83	=83	=83	=83	=83	=83	=83	=83	=83	=83	=83	=83
!	!	!	!	!	!	!	!	!	!	!	!	!	!	!	!	!LO:TX:a:t=3.
8D\L	.	.	2.a/	.	2.ff#X\	.	8D\L	a-	2.d\	a-	2.a\	a-	2.ff#X\	a-	2.r	2.r
8F#X\	.	.	.	.	.	.	8F#X\	.	.	.	.	.	.	.	.	.
8A\	.	.	.	.	.	.	8A\	.	.	.	.	.	.	.	.	.
8Bn\	.	.	.	.	.	.	8Bn\	.	.	.	.	.	.	.	.	.
8c#X\	.	.	.	.	.	.	8c#X\	.	.	.	.	.	.	.	.	.
8d\J	.	.	.	.	.	.	8d\J	.	.	.	.	.	.	.	.	.
!	!	!	!	!	!LO:LB:g=original	!	!	!	!	!	!	!	!	!	!	!
=84	=84	=84	=84	=84	=84	=84	=84	=84	=84	=84	=84	=84	=84	=84	=84	=84
2.cn\	4 #2	.	8aa\L	.	8ff#X\L	.	2.cn\	.	2d\	.	2.a\	-men.	8ff\L	.	2.r	2.r
.	.	.	8gg\	.	8ee\	.	.	.	.	.	.	.	8ee\	.	.	.
.	.	.	8ff#X\	.	8dd\	.	.	.	.	.	.	.	8dd\	.	.	.
.	.	.	8ee\	.	8cc\	.	.	.	.	.	.	.	8cc\	.	.	.
.	.	.	8dd\	.	8bny\	.	.	.	4d\	-men	.	.	8b\J	.	.	.
.	.	.	8cc\J	.	8a\J	.	.	.	.	.	.	.	8ryy	.	.	.
!	!	!	!	!	!	!	!LO:LB:g=original	!	!	!	!	!	!LO:LB:g=original	!	!	!
=85	=85	=85	=85	=85	=85	=85	=85	=85	=85	=85	=85	=85	=85	=85	=85	=85
8c\L	.	.	2ff#X\	.	2aa\	.	8c\L	.	2.d\	a-	2.f#X\	a-	2a\	.	2.r	2.r
8A\	.	.	.	.	.	.	8A\	.	.	.	.	.	.	.	.	.
8F#X\	.	.	.	.	.	.	8F#X\	.	.	.	.	.	.	.	.	.
8E\	.	.	.	.	.	.	8E\	.	.	.	.	.	.	.	.	.
8D\	.	.	4a/	.	4ff#X\	.	8D\	.	.	.	.	.	4a\	.	.	.
8C\J	.	.	.	.	.	.	8C\J	.	.	.	.	.	.	.	.	.
=86	=86	=86	=86	=86	=86	=86	=86	=86	=86	=86	=86	=86	=86	=86	=86	=86
4BB/	.	.	8dd\L	.	8ee\L	.	4BB/	.	2d\	-men	2g\	-men	2g\	-men	4g/	4e/
.	.	.	8b\J	.	16dd\L	.	.	.	.	.	.	.	.	.	.	.
.	.	.	.	.	16bny\JJ	.	.	.	.	.	.	.	.	.	.	.
4GG/	.	.	8g/L	.	8g/L	.	2GG/	-men	.	.	.	.	.	.	4dd\	4e/
.	.	.	8d/	.	8d/	.	.	.	.	.	.	.	.	.	.	.
4GG/	.	.	8B/	.	8Bny/	.	.	.	4r	.	4r	.	4r	.	4dd\	4e/
.	.	.	8G/J	.	8G/J	.	.	.	.	.	.	.	.	.	.	.
=87	=87	=87	=87	=87	=87	=87	=87	=87	=87	=87	=87	=87	=87	=87	=87	=87
!LO:TX:a:t=T&colon;asto	!	!	!	!	!LO:TX:a:t=4	!	!	!	!	!	!	!	!	!	!	!LO:TX:a:t=5.
2.GG/	.	.	2.r	.	2.r	.	2.GG/	a-	2G/	a-	4g\	a-	4b\	a-	2.r	2.r
.	.	.	.	.	.	.	.	.	.	.	4a\	.	4cc\	.	.	.
.	.	.	.	.	.	.	.	.	4F/	.	4b\	.	4dd\	.	.	.
=88	=88	=88	=88	=88	=88	=88	=88	=88	=88	=88	=88	=88	=88	=88	=88	=88
2.GG/	.	.	2.r	.	2.r	.	8C\L	.	8E/L	.	2.cc\	-men	2.ee\	-men	2.r	2.r
.	.	.	.	.	.	.	8D\	.	8F/	.	.	.	.	.	.	.
.	.	.	.	.	.	.	8E\	.	8G/	.	.	.	.	.	.	.
.	.	.	.	.	.	.	8F\J	.	8A/J	.	.	.	.	.	.	.
.	.	.	.	.	.	.	16G\LL	.	16B\LL	.	.	.	.	.	.	.
.	.	.	.	.	.	.	16A\	.	16c\	.	.	.	.	.	.	.
.	.	.	.	.	.	.	16B\	.	16d\	.	.	.	.	.	.	.
.	.	.	.	.	.	.	16c\JJ	.	16e\JJ	.	.	.	.	.	.	.
=89	=89	=89	=89	=89	=89	=89	=89	=89	=89	=89	=89	=89	=89	=89	=89	=89
2.GG/	.	.	2.r	.	2.r	.	2.B\	-men	4f\	.	4g\	a-	4dd\	a-	2.r	2.r
.	.	.	.	.	.	.	.	.	4e\	.	4cc\	.	4ee\	.	.	.
.	.	.	.	.	.	.	.	.	8d\L	.	4a\	.	4ff\	.	.	.
.	.	.	.	.	.	.	.	.	8c\J	.	.	.	.	.	.	.
!	!	!	!	!	!	!	!	!	!LO:LB:g=original	!	!	!	!	!	!	!
=90	=90	=90	=90	=90	=90	=90	=90	=90	=90	=90	=90	=90	=90	=90	=90	=90
2.GG/	.	.	2.r	.	2.r	.	8G\L	a-	8B\L	.	2.g\	-men	2.gg\	-men	2.r	2.r
.	.	.	.	.	.	.	8A\	.	8c\	.	.	.	.	.	.	.
.	.	.	.	.	.	.	8B\	.	8d\	.	.	.	.	.	.	.
.	.	.	.	.	.	.	8c\	.	8e\	.	.	.	.	.	.	.
.	.	.	.	.	.	.	8d\	.	8f\	.	.	.	.	.	.	.
.	.	.	.	.	.	.	8B\J	.	8d\J	.	.	.	.	.	.	.
!	!	!	!	!	!	!	!	!	!	!	!LO:LB:g=original	!	!	!	!	!
=91	=91	=91	=91	=91	=91	=91	=91	=91	=91	=91	=91	=91	=91	=91	=91	=91
*	*	*	*	*	*	*	*	*	*	*	*	*	*	*ij	*	*
2.GG/	.	.	8ee\L	.	8gg\L	.	8c\L	.	8e\L	.	(4cc\	a-	8gg\L	a-	2.r	2.r
.	.	.	8dd\J	.	8ff\J	.	8A\	.	8f\	.	.	.	8ff\J	.	.	.
.	.	.	2dd\	.	2ff\	.	8B\	.	8d\	.	4g\)	.	4ff\	-men	.	.
*	*	*	*	*	*	*	*	*	*	*	*	*	*	*Xij	*	*
.	.	.	.	.	.	.	8G\	.	8e\	.	.	.	.	.	.	.
.	.	.	.	.	.	.	8A\	.	8c\	.	4g\	-men	8r	.	.	.
.	.	.	.	.	.	.	8F\J	.	8d\J	.	.	.	8ff\	a-	.	.
!LO:LB:g=original	!	!	!	!	!	!	!LO:LB:g=original	!	!	!	!	!	!	!	!	!
=92	=92	=92	=92	=92	=92	=92	=92	=92	=92	=92	=92	=92	=92	=92	=92	=92
!LO:TX:t=P:problem=mixed beam	!	!	!	!	!	!	!	!	!	!	!	!	!	!	!	!
.	.	.	.	.	.	.	.	.	.	.	.	.	8qqee/	.	.	.
8GG/L	5	.	8dd\L	.	8ff\L	.	8G\L	.	8B\L	.	(8g\L	a-	8dd\L	.	8g/L	8dd\L
8E\J	6	.	8cc\J	.	8ee\J	.	8E\J	.	8c\J	.	8c\J)	.	8cc\J	.	8cc/J	8ee\J
4F\	6 5	.	4cc\	.	2dd\	.	4F\	.	2d\	-men	4a\	.	4cc\	.	4cc\	2dd\
4G\	.	.	4b\	.	.	.	4G\	-men	.	.	4g\	-men	4b\	-men	4g\	.
!	!	!	!LO:LB:g=original	!	!	!	!	!	!	!	!	!	!	!	!	!
=93	=93	=93	=93	=93	=93	=93	=93	=93	=93	=93	=93	=93	=93	=93	=93	=93-
!	!	!	!	!	!	!	!	!	!	!	!	!	!	!	!	!LO:TX:t=P:problem=brak kreski taktowej
8r	.	.	8r	.	8r	.	8r	.	8r	.	4r	.	8r	.	8r	4e/
*	*	*	*	*	*	*	*	*	*	*	*	*	*	*ij	*	*
8E\	6	.	8ee\	.	8gg\	.	8E\	a-	8c\	a-	.	.	8ee\	a-	8cc\	.
4F\	6 5	.	2dd\	.	4aa\	.	4F\	.	2d\	-men	4a\	a-	4cc\	.	4cc\	2r
4G\	.	.	.	.	4bny\	.	4G\	-men	.	.	4g\	-men	4a\	-men	4g\	.
*	*	*	*	*	*	*	*	*	*	*	*	*	*	*Xij	*	*
!	!	!	!	!	!LO:LB:g=original	!	!	!	!	!	!	!	!	!	!	!
=94	=94	=94	=94	=94	=94	=94	=94	=94	=94	=94	=94	=94	=94	=94	=94	=94
!LO:TX:a:t=2	!	!	!	!	!	!	!	!	!	!	!	!	!	!	!	!LO:TX:a:t=2
2.r	.	.	2.r	.	4cc\	.	2.r	.	2.r	.	2.r	.	2.r	.	2.r	2.r
.	.	.	.	.	4dd\	.	.	.	.	.	.	.	.	.	.	.
.	.	.	.	.	4ee\	.	.	.	.	.	.	.	.	.	.	.
=95	=95	=95	=95	=95	=95	=95	=95	=95	=95	=95	=95	=95	=95	=95	=95	=95
!	!	!	!LO:TX:t=P:problem=mixed beam	!	!	!	!	!	!	!	!	!	!	!	!	!
!	!	!	!	!LO:DY:a:t=p&colon;	!	!	!	!	!LO:TX:t=P:problem=brak t.95	!	!LO:TX:t=P:problem=brak t.95	!	!	!	!LO:TX:t=P:problem=brak t.95	!
2.r	.	.	8a\L	p	2ff\	.	2.r	.	2.ryy	.	2.ryy	.	2.r	.	2.ryy	2.r
.	.	.	8dd\	.	.	.	.	.	.	.	.	.	.	.	.	.
.	.	.	8b\	.	.	.	.	.	.	.	.	.	.	.	.	.
.	.	.	8g\	.	.	.	.	.	.	.	.	.	.	.	.	.
.	.	.	8cc\	.	4ee\	.	.	.	.	.	.	.	.	.	.	.
.	.	.	8c/J	.	.	.	.	.	.	.	.	.	.	.	.	.
!	!	!	!	!	!	!	!	!	!	!	!	!	!LO:LB:g=original	!	!	!
=96	=96	=96	=96	=96	=96	=96	=96	=96	=96	=96	=96	=96	=96	=96	=96	=96
4C|/	.	.	4ee\	.	4aa\	.	4C/	a-	4c\	a-	4r	.	4ee\	a-	4ee\	4gg\
4F|\	.	.	4ff\	.	4ddd\	.	4F\	.	4d\	.	(4a\	a-	4ff\	.	4dd\	4ff\
4G|\	.	.	4dd\	.	4bbny\	.	4G\	.	4B\	.	4g\)	.	4dd\	.	8g/L	4dd\
.	.	.	.	.	.	.	.	.	.	.	.	.	.	.	8g/J	.
!	!	!	!	!	!	!	!	!	!LO:LB:g=original	!	!	!	!	!	!	!
=97	=97	=97	=97	=97	=97	=97	=97	=97	=97	=97	=97	=97	=97	=97	=97	=97
2C/	.	.	2ee\	.	2ccc\	.	2.C/	-men	2c\	-men.	2g\	-men	2ee\	-men.	2e/	2cc\
4r	.	.	4r	.	4r	.	.	.	4r	.	4r	.	4r	.	4r	4r
==	==	==	==	==	==	==	==	==	==	==	==	==	==	==	==	==
*-	*-	*-	*-	*-	*-	*-	*-	*-	*-	*-	*-	*-	*-	*-	*-	*-
!!!RDF**kern: | = vertical stroke
!!!system-decoration: [(s1,s2)][(s3,s4,s5,s6)][(s7,s8)][(s9)]
!!!ENC: Marcin Jachim
!!!END: 2020-08-19
!!!ENC: Urszula Świątek
!!!END: 2022-02-25
!!!YEC: Copyright 2022 Narodowy Instytut Fryderyka Chopina (https://polishscores.org)
!!!YEM: License CC-BY-4.0 (https://creativecommons.org/licenses/by/4.0)
